;Generated with Cura_SteamEngine 15.01
; Default start code
G28 ; Home extruder
G1 Z15 F100
M107 ; Turn off fan
G90 ; Absolute positioning
M82 ; Extruder in absolute mode
M190 S50
; Activate all used extruder
M104 T0 S210
G92 E0 ; Reset extruder position
; Wait for all used extruders to reach temperature
M109 T0 S210
;Layer count: 80
;LAYER:0
M107
G0 F9000 X90.400 Y68.989 Z0.300
;TYPE:SKIRT
G1 F1800 X93.980 Y67.200 E0.19967
G1 X96.437 Y67.200 E0.32225
G1 X100.300 Y68.496 E0.52553
G1 X100.300 Y68.539 E0.52767
G1 X102.980 Y67.200 E0.67714
G1 X105.437 Y67.200 E0.79972
G1 X109.300 Y68.496 E1.00300
G1 X109.300 Y73.242 E1.23978
G1 X109.953 Y73.243 E1.27236
G1 X110.357 Y97.400 E2.47773
G1 X89.644 Y97.400 E3.51110
G1 X89.927 Y80.274 E4.36564
G1 X90.047 Y73.238 E4.71672
G1 X90.400 Y73.238 E4.73433
G1 X90.400 Y68.989 E4.94631
G0 F9000 X89.639 Y97.600
G1 F1800 X110.359 Y97.600 E5.98004
G1 X110.940 Y132.400 E7.71646
G1 X93.112 Y132.401 E8.60590
G1 X89.059 Y132.396 E8.80811
G1 X89.639 Y97.600 E10.54433
G1 F2400 E6.54433
G0 F9000 X94.727 Y92.400
;TYPE:WALL-INNER
G1 F2400 E10.54433
G1 F1800 X94.964 Y78.238 E11.25097
G1 X105.036 Y78.237 E11.75346
G1 X105.272 Y92.400 E12.46016
G1 X94.727 Y92.400 E12.98625
G0 F9000 X94.321 Y92.800
G1 F1800 X94.570 Y77.838 E13.73281
G1 X105.429 Y77.837 E14.27457
G1 X105.679 Y92.800 E15.02118
G1 X94.321 Y92.800 E15.58783
G0 F9000 X93.914 Y93.200
G1 F1800 X94.177 Y77.438 E16.37431
G1 X105.822 Y77.437 E16.95528
G1 X106.086 Y93.200 E17.74181
G1 X93.914 Y93.200 E18.34907
G0 F9000 X93.507 Y93.600
G1 F1800 X93.783 Y77.038 E19.17547
G1 X106.216 Y77.038 E19.79576
G1 X106.493 Y93.600 E20.62215
G1 X93.507 Y93.600 E21.27003
G0 F9000 X93.100 Y94.000
;TYPE:WALL-OUTER
G1 F1800 X93.390 Y76.638 E22.13634
G1 X106.609 Y76.638 E22.79584
G1 X106.900 Y94.000 E23.66216
G1 X93.100 Y94.000 E24.35064
G0 F9000 X93.403 Y93.792
G0 X94.876 Y91.764
;TYPE:SKIN
G1 F1800 X95.371 Y92.259 E24.38557
G0 F9000 X95.936 Y92.259
G1 F1800 X94.885 Y91.208 E24.45972
G0 F9000 X94.895 Y90.652
G1 F1800 X96.502 Y92.259 E24.57310
G0 F9000 X97.068 Y92.259
G1 F1800 X94.904 Y90.096 E24.72575
G0 F9000 X94.913 Y89.539
G1 F1800 X97.633 Y92.259 E24.91766
G0 F9000 X98.199 Y92.259
G1 F1800 X94.922 Y88.983 E25.14883
G0 F9000 X94.931 Y88.426
G1 F1800 X98.765 Y92.259 E25.41931
G0 F9000 X99.330 Y92.259
G1 F1800 X94.941 Y87.870 E25.72898
G0 F9000 X94.951 Y87.314
G1 F1800 X99.896 Y92.259 E26.07787
G0 F9000 X100.462 Y92.259
G1 F1800 X94.960 Y86.757 E26.46607
G0 F9000 X94.969 Y86.201
G1 F1800 X101.027 Y92.259 E26.89349
G0 F9000 X101.593 Y92.259
G1 F1800 X94.978 Y85.644 E27.36022
G0 F9000 X94.987 Y85.088
G1 F1800 X102.159 Y92.259 E27.86620
G0 F9000 X102.724 Y92.259
G1 F1800 X94.997 Y84.532 E28.41139
G0 F9000 X95.006 Y83.976
G1 F1800 X103.290 Y92.259 E28.99583
G0 F9000 X103.856 Y92.259
G1 F1800 X95.016 Y83.419 E29.61954
G0 F9000 X95.025 Y82.863
G1 F1800 X104.421 Y92.259 E30.28248
G0 F9000 X104.987 Y92.259
G1 F1800 X95.034 Y82.306 E30.98472
G0 F9000 X95.044 Y81.750
G1 F1800 X105.122 Y91.828 E31.69578
G0 F9000 X105.112 Y91.253
G1 F1800 X95.053 Y81.194 E32.40549
G0 F9000 X95.062 Y80.637
G1 F1800 X105.102 Y90.677 E33.11387
G0 F9000 X105.093 Y90.103
G1 F1800 X95.071 Y80.081 E33.82097
G0 F9000 X95.081 Y79.524
G1 F1800 X105.083 Y89.527 E34.52670
G0 F9000 X105.073 Y88.951
G1 F1800 X95.090 Y78.968 E35.23106
G0 F9000 X95.100 Y78.412
G1 F1800 X105.064 Y88.377 E35.93411
G0 F9000 X105.054 Y87.801
G1 F1800 X95.631 Y78.377 E36.59899
G0 F9000 X96.196 Y78.377
G1 F1800 X105.045 Y87.226 E37.22333
G0 F9000 X105.035 Y86.650
G1 F1800 X96.762 Y78.377 E37.80704
G0 F9000 X97.328 Y78.377
G1 F1800 X105.025 Y86.075 E38.35014
G0 F9000 X105.016 Y85.500
G1 F1800 X97.893 Y78.377 E38.85270
G0 F9000 X98.459 Y78.377
G1 F1800 X105.006 Y84.924 E39.31463
G0 F9000 X104.997 Y84.350
G1 F1800 X99.025 Y78.377 E39.73602
G0 F9000 X99.591 Y78.377
G1 F1800 X104.987 Y83.774 E40.11677
G0 F9000 X104.977 Y83.198
G1 F1800 X100.156 Y78.377 E40.45692
G0 F9000 X100.721 Y78.377
G1 F1800 X104.968 Y82.624 E40.75657
G0 F9000 X104.958 Y82.048
G1 F1800 X101.287 Y78.377 E41.01558
G0 F9000 X101.853 Y78.377
G1 F1800 X104.949 Y81.473 E41.23402
G0 F9000 X104.939 Y80.897
G1 F1800 X102.418 Y78.377 E41.41185
G0 F9000 X102.984 Y78.377
G1 F1800 X104.929 Y80.322 E41.54908
G0 F9000 X104.920 Y79.747
G1 F1800 X103.550 Y78.377 E41.64574
G0 F9000 X104.115 Y78.377
G1 F1800 X104.910 Y79.171 E41.70180
G0 F9000 X104.901 Y78.597
G1 F1800 X104.681 Y78.377 E41.71732
G1 F2400 E37.71732
G0 F9000 X105.442 Y102.600
;TYPE:WALL-INNER
G1 F2400 E41.71732
G1 F1800 X105.855 Y127.400 E42.95477
G1 X94.143 Y127.401 E43.53909
G1 X94.557 Y102.600 E44.77659
G1 X105.442 Y102.600 E45.31964
G0 F9000 X105.835 Y102.200
G1 F1800 X106.262 Y127.800 E46.59701
G1 X93.737 Y127.801 E47.22188
G1 X94.163 Y102.200 E48.49930
G1 X105.835 Y102.200 E49.08162
G0 F9000 X106.228 Y101.800
G1 F1800 X106.669 Y128.200 E50.39890
G1 X93.330 Y128.201 E51.06439
G1 X93.770 Y101.800 E52.38172
G1 X106.228 Y101.800 E53.00325
G0 F9000 X106.622 Y101.400
G1 F1800 X107.076 Y128.600 E54.36046
G1 X92.923 Y128.600 E55.06655
G1 X93.376 Y101.400 E56.42375
G1 X106.622 Y101.400 E57.08460
G0 F9000 X107.015 Y101.000
;TYPE:WALL-OUTER
G1 F1800 X107.483 Y129.000 E58.48172
G1 X92.516 Y129.000 E59.22843
G1 X92.983 Y101.000 E60.62555
G1 X107.015 Y101.000 E61.32561
G0 F9000 X106.720 Y101.210
G0 X104.719 Y102.739
;TYPE:SKIN
G1 F1800 X105.314 Y103.334 E61.36759
G0 F9000 X105.323 Y103.909
G1 F1800 X104.154 Y102.739 E61.45010
G0 F9000 X103.588 Y102.739
G1 F1800 X105.333 Y104.484 E61.57322
G0 F9000 X105.342 Y105.059
G1 F1800 X103.022 Y102.739 E61.73691
G0 F9000 X102.456 Y102.739
G1 F1800 X105.352 Y105.635 E61.94124
G0 F9000 X105.361 Y106.210
G1 F1800 X101.891 Y102.739 E62.18610
G0 F9000 X101.325 Y102.739
G1 F1800 X105.371 Y106.785 E62.47157
G0 F9000 X105.380 Y107.360
G1 F1800 X100.759 Y102.739 E62.79760
G0 F9000 X100.194 Y102.739
G1 F1800 X105.390 Y107.936 E63.16424
G0 F9000 X105.400 Y108.511
G1 F1800 X99.628 Y102.739 E63.57149
G0 F9000 X99.062 Y102.739
G1 F1800 X105.409 Y109.086 E64.01930
G0 F9000 X105.419 Y109.662
G1 F1800 X98.497 Y102.739 E64.50772
G0 F9000 X97.931 Y102.739
G1 F1800 X105.428 Y110.237 E65.03671
G0 F9000 X105.438 Y110.812
G1 F1800 X97.365 Y102.739 E65.60631
G0 F9000 X96.800 Y102.739
G1 F1800 X105.448 Y111.387 E66.21647
G0 F9000 X105.457 Y111.963
G1 F1800 X96.234 Y102.739 E66.86724
G0 F9000 X95.668 Y102.739
G1 F1800 X105.467 Y112.538 E67.55861
G0 F9000 X105.476 Y113.113
G1 F1800 X95.103 Y102.739 E68.29052
G0 F9000 X94.692 Y102.894
G1 F1800 X105.486 Y113.689 E69.05213
G0 F9000 X105.496 Y114.264
G1 F1800 X94.683 Y103.451 E69.81504
G0 F9000 X94.673 Y104.006
G1 F1800 X105.505 Y114.839 E70.57933
G0 F9000 X105.515 Y115.414
G1 F1800 X94.663 Y104.563 E71.34497
G0 F9000 X94.654 Y105.119
G1 F1800 X105.525 Y115.990 E72.11197
G0 F9000 X105.534 Y116.565
G1 F1800 X94.645 Y105.676 E72.88025
G0 F9000 X94.636 Y106.232
G1 F1800 X105.544 Y117.140 E73.64987
G0 F9000 X105.554 Y117.716
G1 F1800 X94.627 Y106.789 E74.42083
G0 F9000 X94.617 Y107.345
G1 F1800 X105.563 Y118.291 E75.19313
G0 F9000 X105.573 Y118.866
G1 F1800 X94.608 Y107.901 E75.96677
G0 F9000 X94.598 Y108.458
G1 F1800 X105.582 Y119.441 E76.74171
G0 F9000 X105.592 Y120.017
G1 F1800 X94.589 Y109.014 E77.51803
G0 F9000 X94.580 Y109.571
G1 F1800 X105.601 Y120.592 E78.29563
G0 F9000 X105.611 Y121.167
G1 F1800 X94.571 Y110.127 E79.07456
G0 F9000 X94.562 Y110.684
G1 F1800 X105.620 Y121.742 E79.85476
G0 F9000 X105.630 Y122.318
G1 F1800 X94.552 Y111.239 E80.63641
G0 F9000 X94.543 Y111.796
G1 F1800 X105.640 Y122.893 E81.41936
G0 F9000 X105.649 Y123.468
G1 F1800 X94.533 Y112.352 E82.20365
G0 F9000 X94.524 Y112.909
G1 F1800 X105.659 Y124.044 E82.98929
G0 F9000 X105.668 Y124.619
G1 F1800 X94.515 Y113.465 E83.77623
G0 F9000 X94.506 Y114.022
G1 F1800 X105.678 Y125.194 E84.56447
G0 F9000 X105.687 Y125.769
G1 F1800 X94.496 Y114.578 E85.35406
G0 F9000 X94.487 Y115.134
G1 F1800 X105.697 Y126.345 E86.14502
G0 F9000 X105.706 Y126.920
G1 F1800 X94.477 Y115.691 E86.93729
G0 F9000 X94.468 Y116.247
G1 F1800 X105.480 Y127.259 E87.71424
G0 F9000 X104.914 Y127.259
G1 F1800 X94.459 Y116.804 E88.45190
G0 F9000 X94.450 Y117.360
G1 F1800 X104.349 Y127.259 E89.15033
G0 F9000 X103.783 Y127.259
G1 F1800 X94.440 Y117.916 E89.80953
G0 F9000 X94.431 Y118.472
G1 F1800 X103.217 Y127.259 E90.42946
G0 F9000 X102.652 Y127.259
G1 F1800 X94.422 Y119.029 E91.01013
G0 F9000 X94.412 Y119.585
G1 F1800 X102.086 Y127.259 E91.55157
G0 F9000 X101.520 Y127.259
G1 F1800 X94.403 Y120.142 E92.05372
G0 F9000 X94.394 Y120.698
G1 F1800 X100.955 Y127.259 E92.51663
G0 F9000 X100.389 Y127.259
G1 F1800 X94.385 Y121.255 E92.94025
G0 F9000 X94.375 Y121.811
G1 F1800 X99.823 Y127.259 E93.32463
G0 F9000 X99.257 Y127.259
G1 F1800 X94.366 Y122.367 E93.66975
G0 F9000 X94.357 Y122.924
G1 F1800 X98.692 Y127.259 E93.97561
G0 F9000 X98.126 Y127.259
G1 F1800 X94.347 Y123.480 E94.24224
G0 F9000 X94.338 Y124.037
G1 F1800 X97.560 Y127.259 E94.46957
G0 F9000 X96.995 Y127.259
G1 F1800 X94.329 Y124.593 E94.65767
G0 F9000 X94.319 Y125.149
G1 F1800 X96.429 Y127.259 E94.80654
G0 F9000 X95.863 Y127.259
G1 F1800 X94.310 Y125.705 E94.91615
G0 F9000 X94.301 Y126.262
G1 F1800 X95.298 Y127.259 E94.98649
G0 F9000 X94.732 Y127.259
G1 F1800 X94.291 Y126.818 E95.01761
G1 F2400 E91.01761
G0 F9000 X93.600 Y75.738
;TYPE:SUPPORT
G1 F2400 E95.01761
G1 F1800 X93.600 Y70.967 E95.25563
G1 X94.735 Y70.400 E95.31893
G1 X95.914 Y70.400 E95.37775
G1 X97.100 Y70.798 E95.44017
G1 X97.100 Y75.738 E95.68662
G1 X93.600 Y75.738 E95.86124
G0 F9000 X93.700 Y71.982
G0 X93.539 Y71.982
G1 F1800 X97.159 Y71.982 E96.04184
G1 F2400 E92.04184
G0 F9000 X102.600 Y70.967
G1 F2400 E96.04184
G1 F1800 X103.735 Y70.400 E96.10514
G1 X104.914 Y70.400 E96.16396
G1 X106.100 Y70.798 E96.22637
G1 X106.100 Y75.737 E96.47278
G1 X102.600 Y75.737 E96.64740
G1 X102.600 Y70.967 E96.88537
G0 F9000 X102.539 Y71.982
G1 F1800 X106.159 Y71.982 E97.06598
G0 F9000 X106.000 Y71.982
G0 X103.974 Y70.500
G0 X103.974 Y70.340
G1 F1800 X103.974 Y75.797 E97.33823
;LAYER:1
M106 S63
G0 F9000 X103.974 Y76.716 Z0.500
G0 X105.232 Y78.015
;TYPE:WALL-INNER
G1 F2520 X105.475 Y92.600 E97.82339
G1 X94.524 Y92.600 E98.18762
G1 X94.768 Y78.016 E98.67276
G1 X105.232 Y78.015 E99.02079
G0 F9000 X105.620 Y77.615
G1 F2520 X105.882 Y93.000 E99.53257
G1 X94.118 Y93.000 E99.92385
G1 X94.374 Y77.616 E100.43559
G1 X105.620 Y77.615 E100.80963
G0 F9000 X105.621 Y77.215
G1 F2520 X106.018 Y77.216 E100.82284
G1 X106.289 Y93.400 E101.36120
G1 X93.711 Y93.400 E101.77954
G1 X93.981 Y77.216 E102.31790
G1 X105.621 Y77.215 E102.70505
G0 F9000 X105.622 Y76.815
G1 F2520 X106.142 Y76.816 E102.72234
G1 X106.412 Y76.816 E102.73132
G1 X106.696 Y93.800 E103.29629
G1 X93.304 Y93.800 E103.74171
G1 X93.587 Y76.816 E104.30668
G1 X105.622 Y76.815 E104.70697
G0 F9000 X106.805 Y76.416
;TYPE:WALL-OUTER
G1 F1980 X107.103 Y94.200 E105.29855
G1 X92.897 Y94.200 E105.77104
G1 X93.194 Y76.416 E106.36262
G1 X106.805 Y76.416 E106.81532
G0 F9000 X106.510 Y76.626
G0 X104.844 Y78.155
;TYPE:SKIN
G1 F1980 X94.736 Y88.263 E107.29077
G0 F9000 X94.726 Y88.838
G1 F1980 X105.097 Y78.466 E107.77862
G0 F9000 X105.107 Y79.023
G1 F1980 X94.716 Y89.413 E108.26735
G0 F9000 X94.707 Y89.989
G1 F1980 X105.116 Y79.579 E108.75699
G0 F9000 X104.278 Y78.155
G1 F1980 X94.745 Y87.687 E109.20536
G0 F9000 X94.755 Y87.112
G1 F1980 X103.712 Y78.155 E109.62667
G0 F9000 X103.147 Y78.155
G1 F1980 X94.765 Y86.537 E110.02094
G0 F9000 X94.774 Y85.961
G1 F1980 X102.581 Y78.155 E110.38813
G0 F9000 X102.015 Y78.155
G1 F1980 X94.784 Y85.385 E110.72823
G0 F9000 X94.794 Y84.811
G1 F1980 X101.450 Y78.155 E111.04131
G0 F9000 X100.884 Y78.155
G1 F1980 X94.803 Y84.235 E111.32732
G0 F9000 X94.813 Y83.659
G1 F1980 X100.318 Y78.155 E111.58623
G0 F9000 X99.752 Y78.155
G1 F1980 X94.823 Y83.085 E111.81810
G0 F9000 X94.832 Y82.509
G1 F1980 X99.187 Y78.155 E112.02292
G0 F9000 X98.621 Y78.155
G1 F1980 X94.842 Y81.933 E112.20065
G0 F9000 X94.852 Y81.358
G1 F1980 X98.055 Y78.155 E112.35131
G0 F9000 X97.490 Y78.155
G1 F1980 X94.861 Y80.783 E112.47495
G0 F9000 X94.871 Y80.207
G1 F1980 X96.924 Y78.155 E112.57149
G0 F9000 X96.358 Y78.155
G1 F1980 X94.881 Y79.632 E112.64097
G0 F9000 X94.890 Y79.057
G1 F1980 X95.793 Y78.155 E112.68342
G0 F9000 X95.227 Y78.155
G1 F1980 X94.900 Y78.481 E112.69877
G0 F9000 X105.125 Y80.136
G1 F1980 X94.697 Y90.564 E113.18928
G0 F9000 X94.687 Y91.139
G1 F1980 X105.134 Y80.692 E113.68067
G0 F9000 X105.144 Y81.248
G1 F1980 X94.678 Y91.715 E114.17298
G0 F9000 X94.668 Y92.290
G1 F1980 X105.153 Y81.805 E114.66616
G0 F9000 X105.163 Y82.361
G1 F1980 X95.064 Y92.460 E115.14119
G0 F9000 X95.629 Y92.460
G1 F1980 X105.172 Y82.918 E115.59004
G0 F9000 X105.181 Y83.474
G1 F1980 X96.195 Y92.460 E116.01271
G0 F9000 X96.761 Y92.460
G1 F1980 X105.190 Y84.031 E116.40919
G0 F9000 X105.199 Y84.587
G1 F1980 X97.326 Y92.460 E116.77951
G0 F9000 X97.892 Y92.460
G1 F1980 X105.209 Y85.143 E117.12368
G0 F9000 X105.218 Y85.699
G1 F1980 X98.458 Y92.460 E117.44167
G0 F9000 X99.023 Y92.460
G1 F1980 X105.228 Y86.256 E117.73351
G0 F9000 X105.237 Y86.812
G1 F1980 X99.589 Y92.460 E117.99918
G0 F9000 X100.155 Y92.460
G1 F1980 X105.246 Y87.369 E118.23864
G0 F9000 X105.255 Y87.925
G1 F1980 X100.720 Y92.460 E118.45196
G0 F9000 X101.286 Y92.460
G1 F1980 X105.265 Y88.481 E118.63912
G0 F9000 X105.274 Y89.038
G1 F1980 X101.852 Y92.460 E118.80008
G0 F9000 X102.418 Y92.460
G1 F1980 X105.283 Y89.594 E118.93486
G0 F9000 X105.293 Y90.151
G1 F1980 X102.983 Y92.460 E119.04349
G0 F9000 X103.549 Y92.460
G1 F1980 X105.302 Y90.707 E119.12595
G0 F9000 X105.311 Y91.264
G1 F1980 X104.115 Y92.460 E119.18220
G0 F9000 X104.680 Y92.460
G1 F1980 X105.320 Y91.820 E119.21231
G0 F9000 X105.330 Y92.376
G1 F1980 X105.246 Y92.460 E119.21626
G1 F2400 E115.21626
G0 F9000 X105.639 Y102.400
;TYPE:WALL-INNER
G1 F2400 E119.21626
G1 F2520 X106.059 Y127.600 E120.05453
G1 X93.940 Y127.601 E120.45761
G1 X94.360 Y102.400 E121.29592
G1 X105.639 Y102.400 E121.67106
G0 F9000 X106.032 Y102.000
G1 F2520 X106.466 Y128.000 E122.53594
G1 X93.534 Y128.000 E122.96606
G1 X93.966 Y102.000 E123.83094
G1 X106.032 Y102.000 E124.23226
G0 F9000 X106.425 Y101.600
G1 F2520 X106.873 Y128.400 E125.12376
G1 X93.127 Y128.400 E125.58095
G1 X93.573 Y101.600 E126.47245
G1 X106.425 Y101.600 E126.89990
G0 F9000 X106.819 Y101.200
G1 F2520 X107.280 Y128.800 E127.81801
G1 X92.720 Y128.800 E128.30228
G1 X93.179 Y101.200 E129.22039
G1 X106.819 Y101.200 E129.67405
G0 F9000 X107.212 Y100.800
;TYPE:WALL-OUTER
G1 F1980 X107.687 Y129.200 E130.61877
G1 X92.313 Y129.200 E131.13012
G1 X92.786 Y100.800 E132.07484
G1 X107.212 Y100.800 E132.55465
G0 F9000 X106.917 Y101.010
G0 X105.349 Y102.539
;TYPE:SKIN
G1 F1980 X94.313 Y113.575 E133.07375
G0 F9000 X94.304 Y114.150
G1 F1980 X105.506 Y102.948 E133.60065
G0 F9000 X105.515 Y103.504
G1 F1980 X94.294 Y114.725 E134.12845
G0 F9000 X94.284 Y115.301
G1 F1980 X105.525 Y104.061 E134.65717
G0 F9000 X105.534 Y104.617
G1 F1980 X94.275 Y115.876 E135.18676
G0 F9000 X94.265 Y116.452
G1 F1980 X105.544 Y105.173 E135.71729
G0 F9000 X105.553 Y105.730
G1 F1980 X94.256 Y117.026 E136.24864
G0 F9000 X94.246 Y117.602
G1 F1980 X105.562 Y106.286 E136.78091
G0 F9000 X105.571 Y106.843
G1 F1980 X94.237 Y118.177 E137.31403
G0 F9000 X94.227 Y118.752
G1 F1980 X105.580 Y107.399 E137.84804
G0 F9000 X105.590 Y107.956
G1 F1980 X94.217 Y119.328 E138.38297
G0 F9000 X94.208 Y119.903
G1 F1980 X105.600 Y108.511 E138.91881
G0 F9000 X105.609 Y109.068
G1 F1980 X94.198 Y120.478 E139.45553
G0 F9000 X94.189 Y121.053
G1 F1980 X105.618 Y109.624 E139.99311
G0 F9000 X105.627 Y110.181
G1 F1980 X94.179 Y121.629 E140.53159
G0 F9000 X94.169 Y122.205
G1 F1980 X105.636 Y110.737 E141.07099
G0 F9000 X105.645 Y111.294
G1 F1980 X94.160 Y122.779 E141.61121
G0 F9000 X94.150 Y123.355
G1 F1980 X105.655 Y111.850 E142.15237
G0 F9000 X105.665 Y112.406
G1 F1980 X94.141 Y123.930 E142.69442
G0 F9000 X94.131 Y124.505
G1 F1980 X105.674 Y112.963 E143.23734
G0 F9000 X105.683 Y113.519
G1 F1980 X94.122 Y125.080 E143.78114
G0 F9000 X94.112 Y125.656
G1 F1980 X105.692 Y114.076 E144.32583
G0 F9000 X105.701 Y114.632
