;Generated with Cura_SteamEngine 15.01
; Default start code
G28 ; Home extruder
G1 Z15 F100
M107 ; Turn off fan
G90 ; Absolute positioning
M82 ; Extruder in absolute mode
M190 S50
; Activate all used extruder
M104 T0 S210
G92 E0 ; Reset extruder position
; Wait for all used extruders to reach temperature
M109 T0 S210
;Layer count: 56
;LAYER:0
M107
G0 F9000 X91.385 Y62.276 Z0.300
;TYPE:SKIRT
G1 F1800 X100.283 Y62.428 E0.44399
G1 X109.116 Y62.585 E0.88474
G1 X108.422 Y88.928 E2.19945
G1 X108.447 Y88.928 E2.20070
G1 X107.836 Y112.170 E3.36065
G1 X107.862 Y112.170 E3.36194
G1 X107.372 Y130.795 E4.29147
G1 X107.262 Y134.207 E4.46178
G1 X106.542 Y134.194 E4.49771
G1 X106.542 Y136.612 E4.61835
G1 X102.679 Y137.908 E4.82163
G1 X97.042 Y137.908 E5.10286
G1 X97.042 Y137.708 E5.11284
G1 X91.642 Y137.708 E5.38224
G1 X91.642 Y133.934 E5.57053
G1 X90.931 Y133.922 E5.60601
G1 X91.027 Y122.534 E6.17418
G1 X91.081 Y116.354 E6.48251
G1 X90.997 Y116.353 E6.48670
G1 X91.194 Y93.350 E7.63437
G1 X91.118 Y93.349 E7.63816
G1 X91.385 Y62.276 E9.18846
G1 F2400 E5.18846
G0 F9000 X96.341 Y67.363
;TYPE:WALL-INNER
G1 F2400 E9.18846
G1 F1800 X103.985 Y67.495 E9.56987
G1 X103.431 Y88.562 E10.62127
G1 X96.160 Y88.435 E10.98408
G1 X96.341 Y67.363 E12.03541
G0 F9000 X95.945 Y66.956
G1 F1800 X104.395 Y67.102 E12.45704
G1 X103.819 Y88.969 E13.54837
G1 X95.757 Y88.828 E13.95064
G1 X95.945 Y66.956 E15.04188
G0 F9000 X95.548 Y66.549
G1 F1800 X104.805 Y66.709 E15.50379
G1 X104.209 Y89.376 E16.63504
G1 X95.354 Y89.221 E17.07688
G1 X95.548 Y66.549 E18.20804
G0 F9000 X95.152 Y66.142
G1 F1800 X105.216 Y66.316 E18.71021
G1 X104.599 Y89.783 E19.88138
G1 X94.950 Y89.614 E20.36285
G1 X95.152 Y66.142 E21.53391
G0 F9000 X94.755 Y65.734
;TYPE:WALL-OUTER
G1 F1800 X105.627 Y65.923 E22.07640
G1 X104.988 Y90.190 E23.28751
G1 X94.547 Y90.007 E23.80849
G1 X94.755 Y65.734 E25.01952
G0 F9000 X94.962 Y66.037
G0 X96.640 Y67.507
;TYPE:SKIN
G1 F1800 X103.659 Y74.526 E25.51475
G0 F9000 X103.674 Y73.976
G1 F1800 X97.216 Y67.518 E25.97040
G0 F9000 X97.792 Y67.527
G1 F1800 X103.689 Y73.425 E26.38650
G0 F9000 X103.703 Y72.873
G1 F1800 X98.367 Y67.537 E26.76298
G0 F9000 X98.943 Y67.547
G1 F1800 X103.718 Y72.322 E27.09988
G0 F9000 X103.732 Y71.771
G1 F1800 X99.519 Y67.558 E27.39713
G0 F9000 X96.475 Y67.908
G1 F1800 X103.645 Y75.078 E27.90301
G0 F9000 X103.630 Y75.629
G1 F1800 X96.470 Y68.469 E28.40819
G0 F9000 X96.465 Y69.029
G1 F1800 X103.616 Y76.180 E28.91273
G0 F9000 X103.601 Y76.731
G1 F1800 X96.460 Y69.590 E29.41657
G0 F9000 X96.455 Y70.151
G1 F1800 X103.587 Y77.283 E29.91977
G0 F9000 X103.572 Y77.834
G1 F1800 X96.450 Y70.712 E30.42226
G0 F9000 X96.446 Y71.273
G1 F1800 X103.558 Y78.385 E30.92405
G0 F9000 X103.543 Y78.936
G1 F1800 X96.441 Y71.834 E31.42514
G0 F9000 X96.436 Y72.395
G1 F1800 X103.529 Y79.487 E31.92555
G0 F9000 X103.747 Y71.220
G1 F1800 X100.095 Y67.568 E32.18322
G0 F9000 X100.670 Y67.578
G1 F1800 X103.761 Y70.668 E32.40127
G0 F9000 X103.776 Y70.118
G1 F1800 X101.246 Y67.588 E32.57978
G0 F9000 X101.822 Y67.598
G1 F1800 X103.790 Y69.566 E32.71863
G0 F9000 X103.805 Y69.015
G1 F1800 X102.398 Y67.608 E32.81790
G0 F9000 X102.973 Y67.618
G1 F1800 X103.820 Y68.464 E32.87763
G0 F9000 X103.834 Y67.913
G1 F1800 X103.549 Y67.628 E32.89774
G0 F9000 X96.431 Y72.955
G1 F1800 X103.514 Y80.038 E33.39748
G0 F9000 X103.499 Y80.589
G1 F1800 X96.426 Y73.516 E33.89652
G0 F9000 X96.422 Y74.077
G1 F1800 X103.485 Y81.141 E34.39489
G0 F9000 X103.470 Y81.692
G1 F1800 X96.417 Y74.638 E34.89255
G0 F9000 X96.412 Y75.199
G1 F1800 X103.456 Y82.243 E35.38954
G0 F9000 X103.441 Y82.794
G1 F1800 X96.407 Y75.760 E35.88583
G0 F9000 X96.402 Y76.320
G1 F1800 X103.427 Y83.345 E36.38148
G0 F9000 X103.412 Y83.896
G1 F1800 X96.397 Y76.881 E36.87643
G0 F9000 X96.393 Y77.443
G1 F1800 X103.398 Y84.448 E37.37067
G0 F9000 X103.383 Y84.999
G1 F1800 X96.388 Y78.003 E37.86424
G0 F9000 X96.383 Y78.564
G1 F1800 X103.369 Y85.550 E38.35714
G0 F9000 X103.354 Y86.101
G1 F1800 X96.378 Y79.125 E38.84933
G0 F9000 X96.373 Y79.685
G1 F1800 X103.340 Y86.652 E39.34089
G0 F9000 X103.325 Y87.203
G1 F1800 X96.368 Y80.246 E39.83174
G0 F9000 X96.364 Y80.808
G1 F1800 X103.311 Y87.754 E40.32186
G0 F9000 X103.296 Y88.306
G1 F1800 X96.359 Y81.368 E40.81134
G0 F9000 X96.354 Y81.929
G1 F1800 X102.836 Y88.411 E41.26868
G0 F9000 X102.261 Y88.401
G1 F1800 X96.349 Y82.490 E41.68576
G0 F9000 X96.344 Y83.051
G1 F1800 X101.684 Y88.391 E42.06253
G0 F9000 X101.109 Y88.381
G1 F1800 X96.340 Y83.612 E42.39901
G0 F9000 X96.335 Y84.173
G1 F1800 X100.533 Y88.371 E42.69520
G0 F9000 X99.958 Y88.361
G1 F1800 X96.330 Y84.734 E42.95114
G0 F9000 X96.325 Y85.294
G1 F1800 X99.381 Y88.350 E43.16676
G0 F9000 X98.806 Y88.340
G1 F1800 X96.320 Y85.855 E43.34212
G0 F9000 X96.315 Y86.416
G1 F1800 X98.230 Y88.331 E43.47724
G0 F9000 X97.654 Y88.320
G1 F1800 X96.311 Y86.977 E43.57199
G0 F9000 X96.306 Y87.538
G1 F1800 X97.078 Y88.310 E43.62646
G0 F9000 X96.503 Y88.300
G1 F1800 X96.301 Y88.099 E43.64068
G1 F2400 E39.64068
G0 F9000 X96.191 Y93.716
;TYPE:WALL-INNER
G1 F2400 E43.64068
G1 F1800 X103.316 Y93.839 E43.99620
G1 X102.850 Y111.559 E44.88056
G1 X96.039 Y111.440 E45.22041
G1 X96.191 Y93.716 E46.10470
G0 F9000 X95.795 Y93.309
G1 F1800 X103.726 Y93.446 E46.50044
G1 X103.239 Y111.966 E47.42472
G1 X95.636 Y111.833 E47.80410
G1 X95.795 Y93.309 E48.72830
G0 F9000 X95.398 Y92.902
G1 F1800 X104.136 Y93.053 E49.16430
G1 X103.628 Y112.373 E50.12851
G1 X95.233 Y112.226 E50.54741
G1 X95.398 Y92.902 E51.51152
G0 F9000 X95.002 Y92.495
G1 F1800 X104.547 Y92.660 E51.98779
G1 X104.018 Y112.780 E52.99193
G1 X94.829 Y112.619 E53.45044
G1 X95.002 Y92.495 E54.45447
G0 F9000 X94.605 Y92.087
;TYPE:WALL-OUTER
G1 F1800 X104.958 Y92.267 E54.97106
G1 X104.407 Y113.187 E56.01513
G1 X94.426 Y113.012 E56.51316
G1 X94.605 Y92.087 E57.55715
G0 F9000 X94.812 Y92.390
G0 X96.405 Y93.859
;TYPE:SKIN
G1 F1800 X103.002 Y100.456 E58.02260
G0 F9000 X102.987 Y101.007
G1 F1800 X96.324 Y94.345 E58.49268
G0 F9000 X96.319 Y94.905
G1 F1800 X102.973 Y101.558 E58.96212
G0 F9000 X102.958 Y102.109
G1 F1800 X96.315 Y95.466 E59.43082
G0 F9000 X96.310 Y96.027
G1 F1800 X102.944 Y102.661 E59.89888
G0 F9000 X102.929 Y103.212
G1 F1800 X96.305 Y96.587 E60.36628
G0 F9000 X96.300 Y97.149
G1 F1800 X102.915 Y103.763 E60.83296
G0 F9000 X102.900 Y104.314
G1 F1800 X96.295 Y97.710 E61.29895
G0 F9000 X96.290 Y98.270
G1 F1800 X102.886 Y104.866 E61.76433
G0 F9000 X102.871 Y105.416
G1 F1800 X96.286 Y98.831 E62.22894
G0 F9000 X96.281 Y99.393
G1 F1800 X102.857 Y105.968 E62.69288
G0 F9000 X102.842 Y106.519
G1 F1800 X96.276 Y99.953 E63.15614
G0 F9000 X96.981 Y93.870
G1 F1800 X103.016 Y99.905 E63.58194
G0 F9000 X103.031 Y99.354
G1 F1800 X97.557 Y93.880 E63.96816
G0 F9000 X98.132 Y93.890
G1 F1800 X103.045 Y98.803 E64.31480
G0 F9000 X103.060 Y98.251
G1 F1800 X98.708 Y93.900 E64.62182
G0 F9000 X99.284 Y93.910
G1 F1800 X103.074 Y97.700 E64.88923
G0 F9000 X103.089 Y97.149
G1 F1800 X99.859 Y93.920 E65.11709
G0 F9000 X100.435 Y93.929
G1 F1800 X103.103 Y96.598 E65.30537
G0 F9000 X103.118 Y96.047
G1 F1800 X101.010 Y93.939 E65.45410
G0 F9000 X101.587 Y93.950
G1 F1800 X103.132 Y95.496 E65.56314
G0 F9000 X103.147 Y94.944
G1 F1800 X102.162 Y93.960 E65.63260
G0 F9000 X102.738 Y93.970
G1 F1800 X103.161 Y94.393 E65.66245
G0 F9000 X96.271 Y100.514
G1 F1800 X102.827 Y107.070 E66.12501
G0 F9000 X102.813 Y107.621
G1 F1800 X96.266 Y101.075 E66.58690
G0 F9000 X96.261 Y101.635
G1 F1800 X102.798 Y108.172 E67.04812
G0 F9000 X102.784 Y108.724
G1 F1800 X96.257 Y102.197 E67.50863
G0 F9000 X96.252 Y102.758
G1 F1800 X102.769 Y109.274 E67.96841
G0 F9000 X102.755 Y109.826
G1 F1800 X96.247 Y103.318 E68.42758
G0 F9000 X96.242 Y103.879
G1 F1800 X102.740 Y110.377 E68.88605
G0 F9000 X102.726 Y110.928
G1 F1800 X96.237 Y104.440 E69.34385
G0 F9000 X96.233 Y105.001
G1 F1800 X102.646 Y111.414 E69.79632
G0 F9000 X102.070 Y111.403
G1 F1800 X96.228 Y105.562 E70.20847
G0 F9000 X96.223 Y106.123
G1 F1800 X101.494 Y111.394 E70.58037
G0 F9000 X100.918 Y111.384
G1 F1800 X96.218 Y106.684 E70.91198
G0 F9000 X96.214 Y107.245
G1 F1800 X100.342 Y111.373 E71.20323
G0 F9000 X99.767 Y111.363
G1 F1800 X96.209 Y107.806 E71.45423
G0 F9000 X96.204 Y108.366
G1 F1800 X99.191 Y111.353 E71.66498
G0 F9000 X98.615 Y111.343
G1 F1800 X96.199 Y108.927 E71.83544
G0 F9000 X96.194 Y109.488
G1 F1800 X98.039 Y111.333 E71.96562
G0 F9000 X97.464 Y111.323
G1 F1800 X96.190 Y110.049 E72.05551
G0 F9000 X96.185 Y110.610
G1 F1800 X96.887 Y111.312 E72.10504
G0 F9000 X96.312 Y111.302
G1 F1800 X96.180 Y111.171 E72.11431
G1 F2400 E68.11431
G0 F9000 X96.076 Y116.967
;TYPE:WALL-INNER
G1 F2400 E72.11431
G1 F1800 X102.731 Y117.082 E72.44638
G1 X102.414 Y129.121 E73.04722
G1 X95.973 Y129.008 E73.36861
G1 X96.076 Y116.967 E73.96936
G0 F9000 X95.680 Y116.560
G1 F1800 X103.141 Y116.689 E74.34165
G1 X102.803 Y129.528 E74.98241
G1 X95.570 Y129.401 E75.34332
G1 X95.680 Y116.560 E75.98399
G0 F9000 X95.283 Y116.153
G1 F1800 X103.551 Y116.296 E76.39654
G1 X103.193 Y129.935 E77.07723
G1 X95.166 Y129.794 E77.47776
G1 X95.283 Y116.153 E78.15833
G0 F9000 X94.887 Y115.746
G1 F1800 X103.962 Y115.903 E78.61116
G1 X103.582 Y130.342 E79.33177
G1 X94.763 Y130.187 E79.77182
G1 X94.887 Y115.746 E80.49231
G0 F9000 X94.490 Y115.339
;TYPE:WALL-OUTER
G1 F1800 X104.373 Y115.510 E80.98545
G1 X103.973 Y130.696 E81.74334
G1 X103.971 Y130.749 E81.74599
G1 X94.360 Y130.580 E82.22556
G1 X94.490 Y115.339 E82.98596
G0 F9000 X94.697 Y115.641
G0 X96.465 Y117.113
;TYPE:SKIN
G1 F1800 X102.432 Y123.080 E83.40697
G0 F9000 X102.418 Y123.631
G1 F1800 X96.211 Y117.424 E83.84490
G0 F9000 X96.206 Y117.985
G1 F1800 X102.403 Y124.182 E84.28214
G0 F9000 X102.389 Y124.733
G1 F1800 X96.201 Y118.546 E84.71870
G0 F9000 X96.196 Y119.107
G1 F1800 X102.374 Y125.285 E85.15459
G0 F9000 X102.360 Y125.836
G1 F1800 X96.192 Y119.668 E85.58978
G0 F9000 X97.041 Y117.123
G1 F1800 X102.447 Y122.529 E85.97120
G0 F9000 X102.461 Y121.978
G1 F1800 X97.616 Y117.132 E86.31307
G0 F9000 X98.192 Y117.142
G1 F1800 X102.476 Y121.427 E86.61537
G0 F9000 X102.491 Y120.876
G1 F1800 X98.767 Y117.152 E86.87812
G0 F9000 X99.344 Y117.163
G1 F1800 X102.505 Y120.324 E87.10114
G0 F9000 X102.345 Y126.386
G1 F1800 X96.187 Y120.229 E87.53559
G0 F9000 X96.182 Y120.790
G1 F1800 X102.331 Y126.938 E87.96940
G0 F9000 X102.316 Y127.489
G1 F1800 X96.177 Y121.350 E88.40254
G0 F9000 X96.172 Y121.911
G1 F1800 X102.302 Y128.040 E88.83501
G0 F9000 X102.287 Y128.591
G1 F1800 X96.168 Y122.473 E89.26670
G0 F9000 X96.163 Y123.033
G1 F1800 X102.104 Y128.974 E89.68587
G0 F9000 X101.529 Y128.964
G1 F1800 X96.158 Y123.594 E90.06479
G0 F9000 X96.153 Y124.155
G1 F1800 X100.952 Y128.954 E90.40338
G0 F9000 X100.377 Y128.944
G1 F1800 X96.149 Y124.716 E90.70169
G0 F9000 X96.144 Y125.277
G1 F1800 X99.801 Y128.933 E90.95968
G0 F9000 X99.225 Y128.923
G1 F1800 X96.139 Y125.838 E91.17738
G0 F9000 X96.134 Y126.398
G1 F1800 X98.649 Y128.913 E91.35482
G0 F9000 X98.073 Y128.903
G1 F1800 X96.130 Y126.960 E91.49191
G0 F9000 X96.125 Y127.521
G1 F1800 X97.497 Y128.892 E91.58868
G0 F9000 X96.921 Y128.882
G1 F1800 X96.120 Y128.081 E91.64519
G0 F9000 X96.115 Y128.642
G1 F1800 X96.345 Y128.872 E91.66142
G0 F9000 X102.520 Y119.773
G1 F1800 X99.919 Y117.173 E91.84490
G0 F9000 X100.495 Y117.183
G1 F1800 X102.535 Y119.223 E91.98883
G0 F9000 X102.549 Y118.671
G1 F1800 X101.071 Y117.193 E92.09311
G0 F9000 X101.646 Y117.202
G1 F1800 X102.564 Y118.120 E92.15788
G0 F9000 X102.578 Y117.569
G1 F1800 X102.222 Y117.212 E92.18304
G1 F2400 E88.18304
G0 F9000 X97.942 Y131.542
;TYPE:SUPPORT
G1 F2400 E92.18304
G1 F1800 X97.942 Y134.508 E92.33101
G1 X94.842 Y134.508 E92.48567
G1 X94.842 Y131.489 E92.63629
G1 X97.942 Y131.542 E92.79097
G1 F2400 E88.79097
G0 F9000 X100.242 Y131.584
G1 F2400 E92.79097
G1 F1800 X103.342 Y131.637 E92.94565
G1 X103.342 Y134.310 E93.07901
G1 X102.156 Y134.708 E93.14142
G1 X100.242 Y134.708 E93.23691
G1 X100.242 Y131.584 E93.39277
;LAYER:1
M106 S63
G1 F2400 E89.39277
G0 F9000 X103.626 Y88.766 Z0.500
;TYPE:WALL-INNER
G1 F2400 E93.39277
G1 F2520 X95.958 Y88.631 E93.64785
G1 X96.143 Y67.159 E94.36204
G1 X104.191 Y67.298 E94.62975
G1 X103.626 Y88.766 E95.34403
G0 F9000 X104.015 Y89.173
G1 F2520 X95.555 Y89.024 E95.62545
G1 X95.747 Y66.752 E96.36625
G1 X104.601 Y66.905 E96.66078
G1 X104.015 Y89.173 E97.40167
G0 F9000 X104.404 Y89.580
G1 F2520 X95.152 Y89.417 E97.70944
G1 X95.350 Y66.345 E98.47685
G1 X105.011 Y66.512 E98.79822
G1 X104.404 Y89.580 E99.56573
G0 F9000 X104.794 Y89.987
G1 F2520 X94.748 Y89.811 E99.89992
G1 X94.954 Y65.938 E100.69397
G1 X105.422 Y66.119 E101.04218
G1 X104.794 Y89.987 E101.83631
G0 F9000 X105.183 Y90.394
;TYPE:WALL-OUTER
G1 F1980 X94.345 Y90.204 E102.19684
G1 X94.557 Y65.530 E103.01753
G1 X105.833 Y65.726 E103.39263
G1 X105.183 Y90.394 E104.21338
G0 F9000 X104.980 Y90.091
G0 X103.427 Y88.623
;TYPE:SKIN
G1 F1980 X103.490 Y88.560 E104.21634
G0 F9000 X103.505 Y87.978
G1 F1980 X102.871 Y88.613 E104.24618
G0 F9000 X102.315 Y88.603
G1 F1980 X103.520 Y87.398 E104.30286
G0 F9000 X103.535 Y86.817
G1 F1980 X101.759 Y88.593 E104.38640
G0 F9000 X101.203 Y88.583
G1 F1980 X103.551 Y86.235 E104.49684
G0 F9000 X103.566 Y85.655
G1 F1980 X100.648 Y88.573 E104.63410
G0 F9000 X100.092 Y88.563
G1 F1980 X103.581 Y85.074 E104.79821
G0 F9000 X103.597 Y84.492
G1 F1980 X99.535 Y88.554 E104.98927
G0 F9000 X98.980 Y88.544
G1 F1980 X103.612 Y83.912 E105.20715
G0 F9000 X103.627 Y83.331
G1 F1980 X98.424 Y88.534 E105.45188
G0 F9000 X97.868 Y88.524
G1 F1980 X103.643 Y82.749 E105.72352
G0 F9000 X103.658 Y82.169
G1 F1980 X97.312 Y88.514 E106.02199
G0 F9000 X96.756 Y88.505
G1 F1980 X103.673 Y81.588 E106.34735
G0 F9000 X103.689 Y81.006
G1 F1980 X96.201 Y88.495 E106.69958
G0 F9000 X96.102 Y88.027
G1 F1980 X103.704 Y80.426 E107.05713
G0 F9000 X103.719 Y79.845
G1 F1980 X96.107 Y87.457 E107.41518
G0 F9000 X96.112 Y86.886
G1 F1980 X103.734 Y79.264 E107.77370
G0 F9000 X103.750 Y78.683
G1 F1980 X96.117 Y86.315 E108.13270
G0 F9000 X96.122 Y85.745
G1 F1980 X103.765 Y78.102 E108.49221
G0 F9000 X103.780 Y77.521
G1 F1980 X96.127 Y85.174 E108.85218
G0 F9000 X96.132 Y84.603
G1 F1980 X103.796 Y76.940 E109.21265
G0 F9000 X103.811 Y76.359
G1 F1980 X96.137 Y84.033 E109.57361
G0 F9000 X96.142 Y83.462
G1 F1980 X103.826 Y75.778 E109.93504
G0 F9000 X103.842 Y75.197
G1 F1980 X96.147 Y82.892 E110.29699
G0 F9000 X96.152 Y82.321
G1 F1980 X103.857 Y74.616 E110.65941
G0 F9000 X103.872 Y74.035
G1 F1980 X96.157 Y81.750 E111.02230
G0 F9000 X96.162 Y81.180
G1 F1980 X103.888 Y73.454 E111.38571
G0 F9000 X103.903 Y72.873
G1 F1980 X96.166 Y80.610 E111.74963
G0 F9000 X96.171 Y80.039
G1 F1980 X103.918 Y72.292 E112.11403
G0 F9000 X103.934 Y71.711
G1 F1980 X96.176 Y79.468 E112.47892
G0 F9000 X96.181 Y78.898
G1 F1980 X103.949 Y71.129 E112.84432
G0 F9000 X103.964 Y70.549
G1 F1980 X96.186 Y78.327 E113.21018
G0 F9000 X96.191 Y77.756
G1 F1980 X103.980 Y69.968 E113.57652
G0 F9000 X103.995 Y69.386
G1 F1980 X96.196 Y77.186 E113.94339
G0 F9000 X96.201 Y76.615
G1 F1980 X104.010 Y68.806 E114.31070
G0 F9000 X104.026 Y68.225
G1 F1980 X96.206 Y76.045 E114.67853
G0 F9000 X96.211 Y75.474
G1 F1980 X104.041 Y67.643 E115.04685
G0 F9000 X103.690 Y67.429
G1 F1980 X96.216 Y74.903 E115.39841
G0 F9000 X96.220 Y74.333
G1 F1980 X103.134 Y67.419 E115.72362
G0 F9000 X102.578 Y67.409
G1 F1980 X96.225 Y73.762 E116.02244
G0 F9000 X96.230 Y73.191
G1 F1980 X102.022 Y67.400 E116.29486
G0 F9000 X101.466 Y67.390
G1 F1980 X96.235 Y72.621 E116.54091
G0 F9000 X96.240 Y72.050
G1 F1980 X100.910 Y67.380 E116.76057
G0 F9000 X100.354 Y67.371
G1 F1980 X96.245 Y71.480 E116.95385
G0 F9000 X96.250 Y70.909
G1 F1980 X99.798 Y67.361 E117.12073
G0 F9000 X99.242 Y67.351
G1 F1980 X96.255 Y70.338 E117.26123
G0 F9000 X96.259 Y69.768
G1 F1980 X98.685 Y67.342 E117.37534
G0 F9000 X98.130 Y67.332
G1 F1980 X96.264 Y69.198 E117.46312
G0 F9000 X96.269 Y68.627
G1 F1980 X97.574 Y67.322 E117.52450
G0 F9000 X97.017 Y67.313
G1 F1980 X96.274 Y68.056 E117.55945
G0 F9000 X96.279 Y67.486
G1 F1980 X96.462 Y67.303 E117.56805
G1 F2400 E113.56805
G0 F9000 X95.992 Y93.512
;TYPE:WALL-INNER
G1 F2400 E117.56805
G1 F2520 X103.521 Y93.642 E117.81851
