;Generated with Cura_SteamEngine 15.01
; Default start code
G28 ; Home extruder
G1 Z15 F100
M107 ; Turn off fan
G90 ; Absolute positioning
M82 ; Extruder in absolute mode
M190 S50
; Activate all used extruder
M104 T0 S210
G92 E0 ; Reset extruder position
; Wait for all used extruders to reach temperature
M109 T0 S210
;Layer count: 62
;LAYER:0
M107
G0 F9000 X64.525 Y91.900 Z0.300
G0 X64.525 Y94.585
;TYPE:SKIRT
G1 F1800 X64.525 Y91.900 E0.13396
G1 X68.707 Y91.900 E0.34260
G1 X68.705 Y90.782 E0.39837
G1 X72.395 Y90.767 E0.58247
G1 X84.833 Y90.684 E1.20302
G1 X85.624 Y90.663 E1.24249
G1 X85.624 Y90.638 E1.24374
G1 X86.863 Y90.631 E1.30556
G1 X88.125 Y90.598 E1.36854
G1 X88.125 Y90.624 E1.36984
G1 X89.326 Y90.617 E1.42976
G1 X106.747 Y90.501 E2.29891
G1 X107.374 Y90.481 E2.33021
G1 X107.374 Y90.466 E2.33096
G1 X107.939 Y90.462 E2.35915
G1 X110.024 Y90.395 E2.46322
G1 X110.024 Y90.449 E2.46592
G1 X111.199 Y90.442 E2.52454
G1 X132.497 Y90.301 E3.58712
G1 X135.774 Y90.195 E3.75070
G1 X135.774 Y109.721 E4.72485
G1 X111.197 Y109.558 E5.95103
G1 X110.578 Y109.553 E5.98192
G1 X107.374 Y109.553 E6.14176
G1 X107.374 Y109.502 E6.14431
G1 X89.325 Y109.383 E7.04480
G1 X85.624 Y109.355 E7.22945
G1 X85.624 Y109.320 E7.23119
G1 X72.396 Y109.233 E7.89115
G1 X68.706 Y109.211 E8.07525
G1 X68.708 Y107.900 E8.14066
G1 X64.525 Y107.900 E8.34935
G1 X64.525 Y105.215 E8.48330
G1 X64.325 Y105.015 E8.49741
G1 X64.325 Y100.785 E8.70845
G1 X65.210 Y99.900 E8.77089
G1 X64.325 Y99.015 E8.83333
G1 X64.325 Y94.785 E9.04437
G1 X64.525 Y94.585 E9.05848
G1 F2400 E5.05848
G0 F9000 X73.712 Y95.758
;TYPE:WALL-INNER
G1 F2400 E9.05848
G1 F1800 X83.125 Y95.696 E9.52811
G1 X83.125 Y104.304 E9.95756
G1 X73.713 Y104.242 E10.42714
G1 X73.713 Y103.396 E10.46935
G1 X73.712 Y95.758 E10.85041
G0 F9000 X73.312 Y95.361
G1 F1800 X83.525 Y95.293 E11.35995
G1 X83.525 Y104.707 E11.82961
G1 X73.312 Y104.639 E12.33915
G1 X73.312 Y95.361 E12.80203
G0 F9000 X72.912 Y94.964
G1 F1800 X83.925 Y94.891 E13.35149
G1 X83.925 Y105.109 E13.86127
G1 X72.912 Y105.037 E14.41072
G1 X72.912 Y94.964 E14.91326
G0 F9000 X72.513 Y94.768
G1 F1800 X72.512 Y94.730 E14.91516
G1 X72.513 Y94.566 E14.92334
G1 X84.325 Y94.488 E15.51266
G1 X84.325 Y105.512 E16.06265
G1 X72.513 Y105.434 E16.65196
G1 X72.512 Y105.348 E16.65625
G1 X72.513 Y105.213 E16.66299
G1 X72.512 Y94.949 E17.17506
G1 X72.513 Y94.768 E17.18409
G0 F9000 X72.113 Y94.591
;TYPE:WALL-OUTER
G1 F1800 X72.112 Y94.569 E17.18519
G1 X72.113 Y94.399 E17.19367
G1 X72.112 Y94.168 E17.20520
G1 X84.725 Y94.085 E17.83447
G1 X84.725 Y105.915 E18.42468
G1 X72.112 Y105.831 E19.05396
G1 X72.113 Y105.523 E19.06932
G1 X72.112 Y105.345 E19.07820
G1 X72.113 Y105.216 E19.08464
G1 X72.112 Y94.947 E19.59696
G1 X72.113 Y94.771 E19.60574
G1 X72.112 Y94.727 E19.60794
G1 X72.113 Y94.591 E19.61472
G0 F9000 X72.412 Y94.598
G0 X73.851 Y96.196
;TYPE:SKIN
G1 F1800 X81.809 Y104.154 E20.17620
G0 F9000 X81.240 Y104.150
G1 F1800 X73.851 Y96.761 E20.69754
G0 F9000 X73.851 Y97.327
G1 F1800 X80.670 Y104.146 E21.17865
G0 F9000 X80.101 Y104.142
G1 F1800 X73.851 Y97.893 E21.61959
G0 F9000 X73.851 Y98.458
G1 F1800 X79.531 Y104.139 E22.02038
G0 F9000 X78.962 Y104.135
G1 F1800 X73.851 Y99.024 E22.38099
G0 F9000 X73.851 Y99.590
G1 F1800 X78.392 Y104.131 E22.70138
G0 F9000 X77.823 Y104.127
G1 F1800 X73.852 Y100.156 E22.98156
G0 F9000 X73.852 Y100.722
G1 F1800 X77.254 Y104.124 E23.22158
G0 F9000 X76.684 Y104.120
G1 F1800 X73.852 Y101.288 E23.42140
G0 F9000 X73.852 Y101.853
G1 F1800 X76.115 Y104.116 E23.58106
G0 F9000 X75.545 Y104.112
G1 F1800 X73.852 Y102.419 E23.70052
G0 F9000 X73.852 Y102.985
G1 F1800 X74.975 Y104.108 E23.77975
G0 F9000 X74.406 Y104.105
G1 F1800 X73.852 Y103.550 E23.81887
G0 F9000 X74.116 Y95.894
G1 F1800 X82.379 Y104.158 E24.40191
G0 F9000 X82.948 Y104.161
G1 F1800 X74.678 Y95.891 E24.98540
G0 F9000 X75.240 Y95.887
G1 F1800 X82.985 Y103.632 E25.53185
G0 F9000 X82.985 Y103.067
G1 F1800 X75.801 Y95.883 E26.03872
G0 F9000 X76.363 Y95.880
G1 F1800 X82.985 Y102.501 E26.50590
G0 F9000 X82.985 Y101.935
G1 F1800 X76.926 Y95.876 E26.93340
G0 F9000 X77.488 Y95.873
G1 F1800 X82.985 Y101.370 E27.32124
G0 F9000 X82.985 Y100.804
G1 F1800 X78.049 Y95.868 E27.66950
G0 F9000 X78.611 Y95.865
G1 F1800 X82.985 Y100.238 E27.97808
G0 F9000 X82.985 Y99.673
G1 F1800 X79.174 Y95.861 E28.24700
G0 F9000 X79.736 Y95.858
G1 F1800 X82.985 Y99.107 E28.47623
G0 F9000 X82.985 Y98.541
G1 F1800 X80.298 Y95.854 E28.66582
G0 F9000 X80.859 Y95.850
G1 F1800 X82.985 Y97.976 E28.81582
G0 F9000 X82.985 Y97.410
G1 F1800 X81.421 Y95.846 E28.92617
G0 F9000 X81.984 Y95.843
G1 F1800 X82.985 Y96.844 E28.99679
G0 F9000 X82.985 Y96.278
G1 F1800 X82.546 Y95.839 E29.02777
G1 F2400 E25.02777
G0 F9000 X90.624 Y95.609
;TYPE:WALL-INNER
G1 F2400 E29.02777
G1 F1800 X105.024 Y95.513 E29.74620
G1 X105.024 Y104.487 E30.19391
G1 X90.624 Y104.391 E30.91235
G1 X90.624 Y95.609 E31.35049
G0 F9000 X90.224 Y95.211
G1 F1800 X105.424 Y95.110 E32.10883
G1 X105.424 Y104.890 E32.59676
G1 X90.224 Y104.789 E33.35511
G1 X90.224 Y95.211 E33.83296
G0 F9000 X89.824 Y94.813
G1 F1800 X105.824 Y94.708 E34.63122
G1 X105.824 Y105.292 E35.15925
G1 X89.824 Y105.186 E35.95751
G1 X89.824 Y94.813 E36.47503
G0 F9000 X89.424 Y94.416
G1 F1800 X106.224 Y94.305 E37.31320
G1 X106.224 Y105.695 E37.88145
G1 X89.424 Y105.583 E38.71962
G1 X89.424 Y94.416 E39.27675
G0 F9000 X89.024 Y94.019
;TYPE:WALL-OUTER
G1 F1800 X106.624 Y93.902 E40.15483
G1 X106.624 Y106.098 E40.76329
G1 X89.024 Y105.980 E41.64138
G1 X89.024 Y94.019 E42.23812
G0 F9000 X89.324 Y94.227
G0 X90.938 Y95.746
;TYPE:SKIN
G1 F1800 X99.501 Y104.309 E42.84228
G0 F9000 X98.931 Y104.305
G1 F1800 X90.763 Y96.137 E43.41858
G0 F9000 X90.763 Y96.703
G1 F1800 X98.362 Y104.301 E43.95470
G0 F9000 X97.792 Y104.298
G1 F1800 X90.763 Y97.268 E44.45067
G0 F9000 X90.763 Y97.834
G1 F1800 X97.222 Y104.294 E44.90642
G0 F9000 X96.653 Y104.290
G1 F1800 X90.763 Y98.400 E45.32199
G0 F9000 X90.763 Y98.965
G1 F1800 X96.084 Y104.286 E45.69741
G0 F9000 X95.514 Y104.282
G1 F1800 X90.763 Y99.531 E46.03262
G0 F9000 X91.500 Y95.742
G1 F1800 X100.070 Y104.313 E46.63732
G0 F9000 X100.640 Y104.317
G1 F1800 X92.061 Y95.738 E47.24261
G0 F9000 X92.623 Y95.735
G1 F1800 X101.209 Y104.320 E47.84837
G0 F9000 X101.778 Y104.324
G1 F1800 X93.186 Y95.731 E48.45461
G0 F9000 X93.748 Y95.728
G1 F1800 X102.348 Y104.328 E49.06139
G0 F9000 X102.917 Y104.332
G1 F1800 X94.309 Y95.723 E49.66877
G0 F9000 X94.871 Y95.720
G1 F1800 X103.487 Y104.335 E50.27664
G0 F9000 X104.057 Y104.339
G1 F1800 X95.433 Y95.716 E50.88507
G0 F9000 X95.996 Y95.713
G1 F1800 X104.626 Y104.343 E51.49396
G0 F9000 X104.883 Y104.034
G1 F1800 X96.557 Y95.709 E52.08137
G0 F9000 X97.119 Y95.705
G1 F1800 X104.883 Y103.468 E52.62913
G0 F9000 X104.883 Y102.903
G1 F1800 X97.681 Y95.701 E53.13727
G0 F9000 X98.244 Y95.698
G1 F1800 X104.883 Y102.337 E53.60569
G0 F9000 X104.883 Y101.771
G1 F1800 X98.805 Y95.694 E54.03449
G0 F9000 X99.367 Y95.690
G1 F1800 X104.883 Y101.206 E54.42367
G0 F9000 X104.883 Y100.640
G1 F1800 X99.929 Y95.687 E54.77317
G0 F9000 X100.491 Y95.683
G1 F1800 X104.883 Y100.074 E55.08301
G0 F9000 X104.883 Y99.509
G1 F1800 X101.053 Y95.679 E55.35324
G0 F9000 X101.615 Y95.675
G1 F1800 X104.883 Y98.943 E55.58381
G0 F9000 X104.883 Y98.377
G1 F1800 X102.177 Y95.672 E55.77470
G0 F9000 X102.739 Y95.668
G1 F1800 X104.883 Y97.811 E55.92594
G0 F9000 X104.883 Y97.246
G1 F1800 X103.301 Y95.664 E56.03756
G0 F9000 X103.863 Y95.660
G1 F1800 X104.883 Y96.680 E56.10952
G0 F9000 X104.883 Y96.114
G1 F1800 X104.425 Y95.657 E56.14180
G0 F9000 X94.945 Y104.279
G1 F1800 X90.763 Y100.097 E56.43686
G0 F9000 X90.763 Y100.663
G1 F1800 X94.376 Y104.275 E56.69175
G0 F9000 X93.806 Y104.271
G1 F1800 X90.763 Y101.228 E56.90645
G0 F9000 X90.763 Y101.794
G1 F1800 X93.236 Y104.267 E57.08093
G0 F9000 X92.667 Y104.263
G1 F1800 X90.763 Y102.360 E57.21523
G0 F9000 X90.763 Y102.925
G1 F1800 X92.097 Y104.260 E57.30939
G0 F9000 X91.528 Y104.256
G1 F1800 X90.763 Y103.491 E57.36336
G0 F9000 X90.763 Y104.057
G1 F1800 X90.958 Y104.252 E57.37712
G1 F2400 E53.37712
G0 F9000 X112.374 Y104.566
;TYPE:WALL-INNER
G1 F2400 E57.37712
G1 F1800 X112.374 Y95.434 E57.83272
G1 X130.774 Y95.313 E58.75072
G1 X130.774 Y104.688 E59.21844
G1 X112.374 Y104.566 E60.13644
G0 F9000 X111.974 Y104.963
G1 F1800 X111.974 Y95.037 E60.63165
G1 X131.174 Y94.910 E61.58956
G1 X131.174 Y105.091 E62.09749
G1 X111.974 Y104.963 E63.05541
G0 F9000 X111.574 Y105.360
G1 F1800 X111.574 Y94.639 E63.59028
G1 X131.574 Y94.508 E64.58810
G1 X131.574 Y105.493 E65.13615
G1 X111.574 Y105.360 E66.13397
G0 F9000 X111.174 Y105.757
G1 F1800 X111.174 Y94.242 E66.70846
G1 X131.974 Y94.105 E67.74620
G1 X131.974 Y105.896 E68.33445
G1 X111.174 Y105.757 E69.37219
G0 F9000 X110.774 Y106.154
;TYPE:WALL-OUTER
G1 F1800 X110.774 Y93.845 E69.98629
G1 X132.374 Y93.702 E71.06394
G1 X132.374 Y106.299 E71.69241
G1 X110.774 Y106.154 E72.77006
G0 F9000 X110.984 Y105.856
G0 X112.513 Y104.310
;TYPE:SKIN
G1 F1800 X112.630 Y104.427 E72.77832
G0 F9000 X113.199 Y104.431
G1 F1800 X112.513 Y103.745 E72.82672
G0 F9000 X112.513 Y103.179
G1 F1800 X113.768 Y104.434 E72.91527
G0 F9000 X114.338 Y104.438
G1 F1800 X112.513 Y102.613 E73.04403
G0 F9000 X112.513 Y102.048
G1 F1800 X114.907 Y104.442 E73.21294
G0 F9000 X115.476 Y104.446
G1 F1800 X112.513 Y101.482 E73.42203
G0 F9000 X112.513 Y100.916
G1 F1800 X116.046 Y104.450 E73.67134
G0 F9000 X116.616 Y104.453
G1 F1800 X112.513 Y100.351 E73.96079
G0 F9000 X112.513 Y99.785
G1 F1800 X117.185 Y104.457 E74.29043
G0 F9000 X117.755 Y104.461
G1 F1800 X112.513 Y99.219 E74.66028
G0 F9000 X112.513 Y98.654
G1 F1800 X118.324 Y104.465 E75.07028
G0 F9000 X118.893 Y104.468
G1 F1800 X112.513 Y98.088 E75.52042
G0 F9000 X112.513 Y97.522
G1 F1800 X119.463 Y104.472 E76.01078
G0 F9000 X120.032 Y104.476
G1 F1800 X112.513 Y96.957 E76.54129
G0 F9000 X112.513 Y96.391
G1 F1800 X120.602 Y104.479 E77.11197
G0 F9000 X121.171 Y104.484
G1 F1800 X112.513 Y95.825 E77.72288
G0 F9000 X112.824 Y95.571
G1 F1800 X121.741 Y104.487 E78.35198
G0 F9000 X122.310 Y104.491
G1 F1800 X113.385 Y95.566 E78.98169
G0 F9000 X113.948 Y95.563
G1 F1800 X122.880 Y104.495 E79.61189
G0 F9000 X123.449 Y104.499
G1 F1800 X114.510 Y95.559 E80.24262
G0 F9000 X115.072 Y95.556
G1 F1800 X124.018 Y104.502 E80.87381
G0 F9000 X124.588 Y104.506
G1 F1800 X115.634 Y95.552 E81.50556
G0 F9000 X116.196 Y95.548
G1 F1800 X125.157 Y104.510 E82.13785
G0 F9000 X125.727 Y104.513
G1 F1800 X116.758 Y95.544 E82.77066
G0 F9000 X117.320 Y95.541
G1 F1800 X126.297 Y104.518 E83.40403
G0 F9000 X126.866 Y104.521
G1 F1800 X117.882 Y95.537 E84.03790
G0 F9000 X118.444 Y95.534
G1 F1800 X127.436 Y104.525 E84.67230
G0 F9000 X128.005 Y104.529
G1 F1800 X119.006 Y95.530 E85.30723
G0 F9000 X119.568 Y95.526
G1 F1800 X128.574 Y104.533 E85.94269
G0 F9000 X129.144 Y104.537
G1 F1800 X120.130 Y95.523 E86.57867
G0 F9000 X120.692 Y95.519
G1 F1800 X129.713 Y104.540 E87.21515
G0 F9000 X130.283 Y104.544
G1 F1800 X121.253 Y95.515 E87.85223
G0 F9000 X121.816 Y95.511
G1 F1800 X130.633 Y104.329 E88.47436
G0 F9000 X130.633 Y103.763
G1 F1800 X122.378 Y95.508 E89.05679
G0 F9000 X122.940 Y95.504
G1 F1800 X130.633 Y103.197 E89.59957
G0 F9000 X130.633 Y102.632
G1 F1800 X123.502 Y95.501 E90.10270
G0 F9000 X124.064 Y95.496
G1 F1800 X130.633 Y102.066 E90.56622
G0 F9000 X130.633 Y101.500
G1 F1800 X124.626 Y95.493 E90.99004
G0 F9000 X125.188 Y95.489
G1 F1800 X130.633 Y100.935 E91.37425
G0 F9000 X130.633 Y100.369
G1 F1800 X125.750 Y95.486 E91.71878
G0 F9000 X126.312 Y95.482
G1 F1800 X130.633 Y99.803 E92.02365
G0 F9000 X130.633 Y99.238
G1 F1800 X126.874 Y95.478 E92.28890
G0 F9000 X127.436 Y95.474
G1 F1800 X130.633 Y98.672 E92.51450
G0 F9000 X130.633 Y98.106
G1 F1800 X127.998 Y95.471 E92.70041
G0 F9000 X128.560 Y95.467
G1 F1800 X130.633 Y97.541 E92.84671
G0 F9000 X130.633 Y96.975
G1 F1800 X129.122 Y95.464 E92.95332
G0 F9000 X129.684 Y95.460
G1 F1800 X130.633 Y96.409 E93.02028
G0 F9000 X130.633 Y95.844
G1 F1800 X130.246 Y95.456 E93.04762
G1 F2400 E89.04762
G0 F9000 X71.212 Y95.100
;TYPE:SUPPORT
G1 F2400 E93.04762
G1 F1800 X71.212 Y98.500 E93.21724
G1 X68.335 Y98.500 E93.36078
G1 X67.525 Y97.690 E93.41793
G1 X67.525 Y96.110 E93.49675
G1 X67.725 Y95.910 E93.51086
G1 X67.725 Y95.100 E93.55128
G1 X71.212 Y95.100 E93.72524
G1 F2400 E89.72524
G0 F9000 X71.212 Y101.300
G1 F2400 E93.72524
G1 F1800 X71.212 Y104.700 E93.89487
G1 X67.725 Y104.700 E94.06884
G1 X67.725 Y103.890 E94.10925
G1 X67.525 Y103.690 E94.12336
G1 X67.525 Y102.110 E94.20218
G1 X68.335 Y101.300 E94.25933
G1 X71.212 Y101.300 E94.40287
G0 F9000 X71.112 Y103.974
G0 X71.271 Y103.974
G1 F1800 X67.664 Y103.974 E94.58282
;LAYER:1
M106 S63
G1 F2400 E90.58282
G0 F9000 X73.559 Y104.240 Z0.500
;TYPE:WALL-INNER
G1 F2400 E94.58282
G1 F2520 X73.559 Y95.760 E94.86487
G1 X83.125 Y95.696 E95.18304
G1 X83.125 Y104.304 E95.46935
G1 X73.559 Y104.240 E95.78752
G0 F9000 X73.160 Y104.398
G1 F2520 X73.159 Y95.927 E96.06927
G1 X73.160 Y95.573 E96.08104
G1 X73.159 Y95.362 E96.08806
G1 X83.525 Y95.293 E96.43284
G1 X83.525 Y104.707 E96.74595
G1 X73.159 Y104.637 E97.09073
G1 X73.160 Y104.398 E97.09868
G0 F9000 X72.760 Y104.399
G1 F2520 X72.759 Y95.926 E97.38050
G1 X72.760 Y95.574 E97.39220
G1 X72.759 Y95.485 E97.39516
G1 X72.760 Y95.211 E97.40428
G1 X72.759 Y95.170 E97.40564
G1 X72.760 Y94.965 E97.41246
G1 X83.925 Y94.890 E97.78382
G1 X83.925 Y105.109 E98.12370
G1 X72.760 Y105.035 E98.49506
G1 X72.759 Y104.660 E98.50753
G1 X72.760 Y104.399 E98.51621
G0 F9000 X72.360 Y104.401
G1 F2520 X72.359 Y95.925 E98.79813
G1 X72.360 Y95.576 E98.80973
G1 X72.359 Y95.483 E98.81283
G1 X72.360 Y95.214 E98.82177
G1 X72.359 Y95.169 E98.82327
G1 X72.360 Y94.830 E98.83455
G1 X72.359 Y94.569 E98.84323
G1 X84.325 Y94.488 E99.24123
G1 X84.325 Y105.512 E99.60789
G1 X72.359 Y105.432 E100.00589
G1 X72.360 Y104.967 E100.02135
G1 X72.359 Y104.658 E100.03163
G1 X72.360 Y104.401 E100.04018
G0 F9000 X71.960 Y104.402
;TYPE:WALL-OUTER
G1 F1980 X71.959 Y104.313 E100.04314
G1 X71.960 Y95.577 E100.33370
G1 X71.959 Y95.482 E100.33686
G1 X71.960 Y95.217 E100.34567
G1 X71.959 Y95.168 E100.34730
G1 X71.960 Y94.173 E100.38040
G1 X84.725 Y94.084 E100.80497
G1 X84.725 Y105.915 E101.19847
G1 X72.057 Y105.830 E101.61982
G1 X71.960 Y105.828 E101.62305
G1 X71.959 Y104.657 E101.66200
G1 X71.960 Y104.402 E101.67048
G0 F9000 X72.259 Y104.412
G0 X73.806 Y104.101
;TYPE:SKIN
G1 F1980 X82.066 Y95.841 E102.05900
G0 F9000 X82.635 Y95.838
G1 F1980 X74.368 Y104.105 E102.44786
G0 F9000 X74.930 Y104.108
G1 F1980 X82.984 Y96.054 E102.82669
G0 F9000 X82.984 Y96.620
G1 F1980 X75.492 Y104.112 E103.17909
G0 F9000 X76.054 Y104.116
G1 F1980 X82.984 Y97.186 E103.50506
G0 F9000 X82.984 Y97.751
G1 F1980 X76.616 Y104.120 E103.80462
G0 F9000 X77.178 Y104.123
G1 F1980 X82.984 Y98.317 E104.07771
G0 F9000 X82.984 Y98.883
G1 F1980 X77.740 Y104.127 E104.32437
G0 F9000 X78.302 Y104.131
G1 F1980 X82.984 Y99.448 E104.54462
G0 F9000 X81.496 Y95.845
G1 F1980 X73.698 Y103.643 E104.91142
G0 F9000 X73.698 Y103.077
G1 F1980 X80.926 Y95.849 E105.25140
G0 F9000 X80.357 Y95.853
G1 F1980 X73.698 Y102.512 E105.56462
G0 F9000 X73.698 Y101.946
G1 F1980 X79.788 Y95.856 E105.85107
G0 F9000 X79.218 Y95.861
G1 F1980 X73.698 Y101.380 E106.11069
G0 F9000 X73.698 Y100.815
G1 F1980 X78.649 Y95.864 E106.34357
G0 F9000 X78.080 Y95.868
G1 F1980 X73.698 Y100.249 E106.54967
G0 F9000 X78.864 Y104.134
G1 F1980 X82.984 Y100.014 E106.74346
G0 F9000 X82.984 Y100.580
G1 F1980 X79.425 Y104.139 E106.91086
G0 F9000 X79.987 Y104.142
G1 F1980 X82.984 Y101.145 E107.05183
G0 F9000 X82.984 Y101.711
G1 F1980 X80.550 Y104.146 E107.16634
G0 F9000 X81.111 Y104.150
G1 F1980 X82.984 Y102.277 E107.25444
G0 F9000 X82.984 Y102.843
G1 F1980 X81.673 Y104.154 E107.31611
G0 F9000 X82.235 Y104.157
G1 F1980 X82.984 Y103.408 E107.35134
G0 F9000 X82.984 Y103.974
G1 F1980 X82.797 Y104.161 E107.36014
G0 F9000 X77.510 Y95.872
G1 F1980 X73.698 Y99.683 E107.53942
G0 F9000 X73.698 Y99.117
G1 F1980 X76.940 Y95.875 E107.69191
G0 F9000 X76.371 Y95.879
G1 F1980 X73.698 Y98.552 E107.81764
G0 F9000 X73.698 Y97.986
G1 F1980 X75.801 Y95.883 E107.91656
G0 F9000 X75.232 Y95.887
