;Generated with Cura_SteamEngine 15.01
; Default start code
G28 ; Home extruder
G1 Z15 F100
M107 ; Turn off fan
G90 ; Absolute positioning
M82 ; Extruder in absolute mode
M190 S50
; Activate all used extruder
M104 T0 S210
G92 E0 ; Reset extruder position
; Wait for all used extruders to reach temperature
M109 T0 S210
;Layer count: 67
;LAYER:0
M107
G0 F9000 X54.386 Y91.800 Z0.300
G0 X56.377 Y91.800
;TYPE:SKIRT
G1 F1800 X56.375 Y90.888 E0.04550
G1 X81.199 Y90.667 E1.28402
G1 X81.199 Y90.666 E1.28407
G1 X112.100 Y90.392 E2.82579
G1 X112.100 Y90.391 E2.82584
G1 X147.900 Y90.074 E4.61198
G1 X147.900 Y109.926 E5.60240
G1 X112.100 Y109.608 E7.38854
G1 X112.100 Y109.606 E7.38864
G1 X81.199 Y109.333 E8.93036
G1 X81.199 Y109.331 E8.93046
G1 X59.799 Y109.143 E9.99815
G1 X56.374 Y109.102 E10.16903
G1 X56.377 Y108.000 E10.22401
G1 X54.385 Y108.000 E10.32340
G1 X51.700 Y105.315 E10.51284
G1 X51.700 Y100.885 E10.73385
G1 X52.685 Y99.900 E10.80335
G1 X51.700 Y98.915 E10.87284
G1 X51.700 Y94.486 E11.09381
G1 X54.386 Y91.800 E11.28332
G1 X56.377 Y91.800 E11.38265
G1 F2400 E7.38265
G0 F9000 X61.382 Y95.843
;TYPE:WALL-INNER
G1 F2400 E11.38265
G1 F1800 X76.400 Y95.710 E12.13193
G1 X76.400 Y104.289 E12.55994
G1 X61.383 Y104.157 E13.30917
G1 X61.382 Y95.843 E13.72396
G0 F9000 X60.982 Y95.447
G1 F1800 X76.800 Y95.307 E14.51315
G1 X76.800 Y104.693 E14.98142
G1 X60.983 Y104.553 E15.77056
G1 X60.982 Y95.447 E16.22487
G0 F9000 X60.582 Y95.097
G1 F1800 X60.582 Y95.050 E16.22721
G1 X77.200 Y94.903 E17.05632
G1 X77.200 Y105.096 E17.56485
G1 X60.583 Y104.950 E18.39391
G1 X60.582 Y95.097 E18.88547
G0 F9000 X60.182 Y95.096
G1 F1800 X60.183 Y94.787 E18.90089
G1 X60.182 Y94.654 E18.90753
G1 X77.600 Y94.499 E19.77655
G1 X77.600 Y105.500 E20.32539
G1 X60.183 Y105.346 E21.19436
G1 X60.182 Y105.245 E21.19940
G1 X60.183 Y105.166 E21.20334
G1 X60.182 Y105.062 E21.20853
G1 X60.183 Y105.046 E21.20933
G1 X60.182 Y104.953 E21.21397
G1 X60.183 Y104.939 E21.21467
G1 X60.182 Y95.096 E21.70574
G0 F9000 X59.783 Y94.528
;TYPE:WALL-OUTER
G1 F1800 X59.782 Y94.257 E21.71926
G1 X78.000 Y94.096 E22.62820
G1 X78.000 Y105.903 E23.21725
G1 X59.782 Y105.742 E24.12618
G1 X59.783 Y105.528 E24.13686
G1 X59.782 Y105.501 E24.13821
G1 X59.783 Y105.482 E24.13916
G1 X59.782 Y105.471 E24.13971
G1 X59.783 Y105.418 E24.14235
G1 X59.782 Y105.366 E24.14495
G1 X59.783 Y105.337 E24.14640
G1 X59.782 Y105.320 E24.14725
G1 X59.783 Y105.308 E24.14785
G1 X59.782 Y105.234 E24.15154
G1 X59.783 Y105.188 E24.15383
G1 X59.782 Y105.172 E24.15463
G1 X59.783 Y105.157 E24.15538
G1 X59.782 Y105.057 E24.16037
G1 X59.783 Y105.035 E24.16147
G1 X59.782 Y104.950 E24.16571
G1 X59.783 Y104.927 E24.16686
G1 X59.782 Y94.576 E24.68328
G1 X59.783 Y94.528 E24.68567
G0 F9000 X60.082 Y94.541
G0 X61.755 Y95.979
;TYPE:SKIN
G1 F1800 X69.866 Y104.090 E25.25795
G0 F9000 X69.295 Y104.085
G1 F1800 X61.522 Y96.312 E25.80637
G0 F9000 X61.522 Y96.877
G1 F1800 X68.725 Y104.080 E26.31458
G0 F9000 X68.154 Y104.075
G1 F1800 X61.522 Y97.443 E26.78251
G0 F9000 X61.522 Y98.009
G1 F1800 X67.583 Y104.070 E27.21014
G0 F9000 X67.013 Y104.065
G1 F1800 X61.522 Y98.574 E27.59756
G0 F9000 X61.522 Y99.140
G1 F1800 X66.442 Y104.060 E27.94470
G0 F9000 X65.871 Y104.055
G1 F1800 X61.522 Y99.706 E28.25154
G0 F9000 X62.315 Y95.974
G1 F1800 X70.437 Y104.095 E28.82456
G0 F9000 X71.007 Y104.100
G1 F1800 X62.876 Y95.969 E29.39824
G0 F9000 X63.437 Y95.964
G1 F1800 X71.578 Y104.105 E29.97263
G0 F9000 X72.148 Y104.110
G1 F1800 X63.998 Y95.959 E30.54770
G0 F9000 X64.558 Y95.954
G1 F1800 X72.720 Y104.115 E31.12353
G0 F9000 X73.290 Y104.120
G1 F1800 X65.119 Y95.949 E31.70004
G0 F9000 X65.680 Y95.944
G1 F1800 X73.861 Y104.125 E32.27726
G0 F9000 X74.432 Y104.130
G1 F1800 X66.241 Y95.939 E32.85518
G0 F9000 X66.801 Y95.934
G1 F1800 X75.002 Y104.135 E33.43380
G0 F9000 X75.573 Y104.140
G1 F1800 X67.362 Y95.929 E34.01313
G0 F9000 X67.923 Y95.924
G1 F1800 X76.144 Y104.145 E34.59317
G0 F9000 X76.260 Y103.695
G1 F1800 X68.483 Y95.919 E35.14184
G0 F9000 X69.044 Y95.914
G1 F1800 X76.260 Y103.130 E35.65097
G0 F9000 X76.260 Y102.564
G1 F1800 X69.604 Y95.909 E36.12055
G0 F9000 X70.165 Y95.904
G1 F1800 X76.260 Y101.998 E36.55055
G0 F9000 X76.260 Y101.433
G1 F1800 X70.726 Y95.899 E36.94100
G0 F9000 X71.286 Y95.894
G1 F1800 X76.260 Y100.867 E37.29191
G0 F9000 X76.260 Y100.301
G1 F1800 X71.847 Y95.889 E37.60324
G0 F9000 X72.408 Y95.884
G1 F1800 X76.260 Y99.735 E37.87498
G0 F9000 X76.260 Y99.170
G1 F1800 X72.969 Y95.879 E38.10718
G0 F9000 X73.529 Y95.874
G1 F1800 X76.260 Y98.604 E38.29983
G0 F9000 X76.260 Y98.038
G1 F1800 X74.090 Y95.869 E38.45290
G0 F9000 X74.651 Y95.864
G1 F1800 X76.260 Y97.473 E38.56642
G0 F9000 X76.260 Y96.907
G1 F1800 X75.212 Y95.859 E38.64037
G0 F9000 X75.772 Y95.854
G1 F1800 X76.260 Y96.341 E38.67476
G0 F9000 X65.300 Y104.050
G1 F1800 X61.522 Y100.271 E38.94135
G0 F9000 X61.522 Y100.837
G1 F1800 X64.729 Y104.045 E39.16766
G0 F9000 X64.159 Y104.040
G1 F1800 X61.522 Y101.403 E39.35372
G0 F9000 X61.522 Y101.969
G1 F1800 X63.588 Y104.035 E39.49948
G0 F9000 X63.018 Y104.030
G1 F1800 X61.522 Y102.534 E39.60503
G0 F9000 X61.522 Y103.100
G1 F1800 X62.447 Y104.025 E39.67030
G0 F9000 X61.876 Y104.020
G1 F1800 X61.522 Y103.666 E39.69527
G1 F2400 E35.69527
G0 F9000 X86.199 Y104.377
;TYPE:WALL-INNER
G1 F2400 E39.69527
G1 F1800 X86.199 Y95.622 E40.13206
G1 X107.999 Y95.429 E41.21971
G1 X107.999 Y104.570 E41.67576
G1 X86.199 Y104.377 E42.76341
G0 F9000 X85.799 Y104.773
G1 F1800 X85.799 Y95.226 E43.23971
G1 X108.399 Y95.026 E44.36727
G1 X108.399 Y104.973 E44.86353
G1 X85.799 Y104.773 E45.99109
G0 F9000 X85.399 Y105.170
G1 F1800 X85.399 Y94.829 E46.50701
G1 X108.799 Y94.622 E47.67448
G1 X108.799 Y105.377 E48.21105
G1 X85.399 Y105.170 E49.37853
G0 F9000 X84.999 Y105.566
G1 F1800 X84.999 Y94.433 E49.93396
G1 X109.199 Y94.218 E51.14135
G1 X109.199 Y105.781 E51.71823
G1 X84.999 Y105.566 E52.92562
G0 F9000 X84.599 Y105.963
;TYPE:WALL-OUTER
G1 F1800 X84.599 Y94.036 E53.52066
G1 X109.599 Y93.815 E54.76796
G1 X109.599 Y106.184 E55.38505
G1 X84.599 Y105.963 E56.63236
G0 F9000 X84.809 Y105.666
G0 X86.339 Y104.158
;TYPE:SKIN
G1 F1800 X86.419 Y104.238 E56.63800
G0 F9000 X86.989 Y104.243
G1 F1800 X86.339 Y103.592 E56.68390
G0 F9000 X86.339 Y103.026
G1 F1800 X87.560 Y104.248 E56.77008
G0 F9000 X88.130 Y104.252
G1 F1800 X86.339 Y102.461 E56.89645
G0 F9000 X86.339 Y101.895
G1 F1800 X88.701 Y104.257 E57.06310
G0 F9000 X89.272 Y104.262
G1 F1800 X86.339 Y101.329 E57.27004
G0 F9000 X86.339 Y100.764
G1 F1800 X89.843 Y104.268 E57.51726
G0 F9000 X90.414 Y104.273
G1 F1800 X86.339 Y100.198 E57.80478
G0 F9000 X86.339 Y99.632
G1 F1800 X90.984 Y104.278 E58.13254
G0 F9000 X91.555 Y104.283
G1 F1800 X86.339 Y99.067 E58.50056
G0 F9000 X86.339 Y98.501
G1 F1800 X92.126 Y104.288 E58.90886
G0 F9000 X92.697 Y104.294
G1 F1800 X86.339 Y97.935 E59.35749
G0 F9000 X86.339 Y97.370
G1 F1800 X93.268 Y104.298 E59.84633
G0 F9000 X93.838 Y104.303
G1 F1800 X86.339 Y96.804 E60.37543
G0 F9000 X86.339 Y96.238
G1 F1800 X94.409 Y104.308 E60.94481
G0 F9000 X94.979 Y104.313
G1 F1800 X86.426 Y95.759 E61.54831
G0 F9000 X86.986 Y95.754
G1 F1800 X95.551 Y104.319 E62.15261
G0 F9000 X96.121 Y104.324
G1 F1800 X87.547 Y95.750 E62.75755
G0 F9000 X88.108 Y95.745
G1 F1800 X96.692 Y104.329 E63.36320
G0 F9000 X97.263 Y104.334
G1 F1800 X88.669 Y95.740 E63.96956
G0 F9000 X89.229 Y95.735
G1 F1800 X97.833 Y104.339 E64.57661
G0 F9000 X98.404 Y104.344
G1 F1800 X89.790 Y95.730 E65.18438
G0 F9000 X90.351 Y95.725
G1 F1800 X98.975 Y104.349 E65.79285
G0 F9000 X99.546 Y104.354
G1 F1800 X90.912 Y95.720 E66.40202
G0 F9000 X91.472 Y95.715
G1 F1800 X100.117 Y104.359 E67.01194
G0 F9000 X100.687 Y104.364
G1 F1800 X92.033 Y95.710 E67.62253
G0 F9000 X92.594 Y95.705
G1 F1800 X101.258 Y104.369 E68.23382
G0 F9000 X101.829 Y104.375
G1 F1800 X93.154 Y95.700 E68.84589
G0 F9000 X93.715 Y95.695
G1 F1800 X102.400 Y104.380 E69.45866
G0 F9000 X102.971 Y104.385
G1 F1800 X94.276 Y95.690 E70.07214
G0 F9000 X94.837 Y95.685
G1 F1800 X103.541 Y104.390 E70.68629
G0 F9000 X104.112 Y104.395
G1 F1800 X95.397 Y95.680 E71.30118
G0 F9000 X95.958 Y95.675
G1 F1800 X104.683 Y104.400 E71.91677
G0 F9000 X105.254 Y104.405
G1 F1800 X96.519 Y95.670 E72.53308
G0 F9000 X97.080 Y95.665
G1 F1800 X105.824 Y104.410 E73.15005
G0 F9000 X106.395 Y104.415
G1 F1800 X97.640 Y95.660 E73.76776
G0 F9000 X98.201 Y95.655
G1 F1800 X106.966 Y104.420 E74.38618
G0 F9000 X107.536 Y104.425
G1 F1800 X98.762 Y95.651 E75.00523
G0 F9000 X99.323 Y95.646
G1 F1800 X107.858 Y104.181 E75.60742
G0 F9000 X107.858 Y103.615
G1 F1800 X99.883 Y95.641 E76.17007
G0 F9000 X100.444 Y95.636
G1 F1800 X107.858 Y103.050 E76.69316
G0 F9000 X107.858 Y102.484
G1 F1800 X101.005 Y95.631 E77.17668
G0 F9000 X101.565 Y95.626
G1 F1800 X107.858 Y101.918 E77.62065
G0 F9000 X107.858 Y101.353
G1 F1800 X102.126 Y95.621 E78.02507
G0 F9000 X102.687 Y95.616
G1 F1800 X107.858 Y100.787 E78.38992
G0 F9000 X107.858 Y100.221
G1 F1800 X103.248 Y95.611 E78.71518
G0 F9000 X103.808 Y95.606
G1 F1800 X107.858 Y99.656 E79.00093
G0 F9000 X107.858 Y99.090
G1 F1800 X104.369 Y95.601 E79.24709
G0 F9000 X104.930 Y95.596
G1 F1800 X107.858 Y98.524 E79.45368
G0 F9000 X107.858 Y97.959
G1 F1800 X105.491 Y95.591 E79.62072
G0 F9000 X106.051 Y95.586
G1 F1800 X107.858 Y97.393 E79.74821
G0 F9000 X107.858 Y96.827
G1 F1800 X106.612 Y95.581 E79.83612
G0 F9000 X107.173 Y95.576
G1 F1800 X107.858 Y96.261 E79.88446
G0 F9000 X107.858 Y95.696
G1 F1800 X107.734 Y95.571 E79.89324
G1 F2400 E75.89324
G0 F9000 X117.100 Y95.347
;TYPE:WALL-INNER
G1 F2400 E79.89324
G1 F1800 X142.900 Y95.119 E81.18046
G1 X142.900 Y104.881 E81.66748
G1 X117.100 Y104.652 E82.95470
G1 X117.100 Y95.347 E83.41893
G0 F9000 X116.700 Y94.951
G1 F1800 X143.300 Y94.715 E84.74606
G1 X143.300 Y105.284 E85.27335
G1 X116.700 Y105.048 E86.60048
G1 X116.700 Y94.951 E87.10423
G0 F9000 X116.300 Y94.554
G1 F1800 X143.700 Y94.312 E88.47127
G1 X143.700 Y105.688 E89.03882
G1 X116.300 Y105.445 E90.40587
G1 X116.300 Y94.554 E90.94922
G0 F9000 X115.900 Y94.158
G1 F1800 X144.100 Y93.908 E92.35618
G1 X144.100 Y106.092 E92.96404
G1 X115.900 Y105.841 E94.37100
G1 X115.900 Y94.158 E94.95387
G0 F9000 X115.500 Y93.761
;TYPE:WALL-OUTER
G1 F1800 X144.500 Y93.505 E96.40074
G1 X144.500 Y106.495 E97.04881
G1 X115.500 Y106.238 E98.49569
G1 X115.500 Y93.761 E99.11817
G0 F9000 X115.709 Y94.058
G0 X117.264 Y95.485
;TYPE:SKIN
G1 F1800 X126.372 Y104.593 E99.76079
G0 F9000 X125.802 Y104.588
G1 F1800 X117.239 Y96.025 E100.36495
G0 F9000 X117.239 Y96.591
G1 F1800 X125.231 Y104.583 E100.92883
G0 F9000 X124.660 Y104.578
G1 F1800 X117.239 Y97.157 E101.45242
G0 F9000 X117.239 Y97.722
G1 F1800 X124.089 Y104.573 E101.93576
G0 F9000 X123.518 Y104.568
G1 F1800 X117.239 Y98.288 E102.37881
G0 F9000 X117.239 Y98.854
G1 F1800 X122.948 Y104.563 E102.78162
G0 F9000 X122.377 Y104.558
G1 F1800 X117.239 Y99.419 E103.14416
G0 F9000 X117.239 Y99.985
G1 F1800 X121.806 Y104.553 E103.46643
G0 F9000 X121.236 Y104.548
G1 F1800 X117.239 Y100.551 E103.74844
G0 F9000 X117.239 Y101.116
G1 F1800 X120.664 Y104.542 E103.99012
G0 F9000 X120.094 Y104.537
G1 F1800 X117.239 Y101.682 E104.19156
G0 F9000 X117.239 Y102.248
G1 F1800 X119.523 Y104.533 E104.35274
G0 F9000 X118.953 Y104.528
G1 F1800 X117.239 Y102.814 E104.47368
G0 F9000 X117.239 Y103.379
G1 F1800 X118.382 Y104.523 E104.55436
G0 F9000 X117.811 Y104.518
G1 F1800 X117.239 Y103.945 E104.59475
G0 F9000 X117.825 Y95.480
G1 F1800 X126.943 Y104.598 E105.23807
G0 F9000 X127.513 Y104.603
G1 F1800 X118.385 Y95.475 E105.88210
G0 F9000 X118.946 Y95.470
G1 F1800 X128.084 Y104.608 E106.52684
G0 F9000 X128.655 Y104.614
G1 F1800 X119.507 Y95.465 E107.17231
G0 F9000 X120.068 Y95.460
G1 F1800 X129.226 Y104.619 E107.81849
G0 F9000 X129.797 Y104.624
G1 F1800 X120.628 Y95.455 E108.46542
G0 F9000 X121.189 Y95.450
G1 F1800 X130.367 Y104.629 E109.11301
G0 F9000 X130.938 Y104.634
G1 F1800 X121.750 Y95.445 E109.76131
G0 F9000 X122.311 Y95.441
G1 F1800 X131.509 Y104.639 E110.41028
G0 F9000 X132.080 Y104.644
G1 F1800 X122.871 Y95.436 E111.05999
G0 F9000 X123.432 Y95.431
G1 F1800 X132.651 Y104.649 E111.71040
G0 F9000 X133.221 Y104.654
G1 F1800 X123.993 Y95.426 E112.36149
G0 F9000 X124.554 Y95.421
G1 F1800 X133.792 Y104.659 E113.01328
G0 F9000 X134.363 Y104.664
G1 F1800 X125.114 Y95.416 E113.66581
G0 F9000 X125.675 Y95.411
G1 F1800 X134.933 Y104.669 E114.31901
G0 F9000 X135.504 Y104.675
G1 F1800 X126.236 Y95.406 E114.97295
G0 F9000 X126.796 Y95.401
G1 F1800 X136.075 Y104.680 E115.62764
G0 F9000 X136.646 Y104.685
G1 F1800 X127.357 Y95.396 E116.28303
G0 F9000 X127.918 Y95.391
G1 F1800 X137.216 Y104.689 E116.93905
G0 F9000 X137.787 Y104.694
G1 F1800 X128.479 Y95.386 E117.59578
G0 F9000 X129.039 Y95.381
G1 F1800 X138.358 Y104.699 E118.25325
G0 F9000 X138.928 Y104.704
G1 F1800 X129.600 Y95.376 E118.91139
G0 F9000 X130.161 Y95.371
G1 F1800 X139.500 Y104.710 E119.57031
G0 F9000 X140.070 Y104.715
G1 F1800 X130.722 Y95.366 E120.22990
G0 F9000 X131.282 Y95.361
G1 F1800 X140.641 Y104.720 E120.89022
G0 F9000 X141.212 Y104.725
G1 F1800 X131.843 Y95.356 E121.55126
G0 F9000 X132.404 Y95.351
G1 F1800 X141.782 Y104.730 E122.21296
G0 F9000 X142.353 Y104.735
G1 F1800 X132.965 Y95.346 E122.87537
G0 F9000 X133.525 Y95.342
G1 F1800 X142.759 Y104.575 E123.52684
G0 F9000 X142.759 Y104.009
G1 F1800 X134.086 Y95.337 E124.13874
G0 F9000 X134.647 Y95.332
G1 F1800 X142.759 Y103.444 E124.71108
G0 F9000 X142.759 Y102.878
G1 F1800 X135.208 Y95.327 E125.24384
G0 F9000 X135.768 Y95.322
G1 F1800 X142.759 Y102.312 E125.73706
G0 F9000 X142.759 Y101.747
G1 F1800 X136.329 Y95.317 E126.19073
G0 F9000 X136.890 Y95.312
G1 F1800 X142.759 Y101.181 E126.60482
G0 F9000 X142.759 Y100.615
G1 F1800 X137.450 Y95.307 E126.97937
G0 F9000 X138.011 Y95.302
G1 F1800 X142.759 Y100.049 E127.31433
G0 F9000 X142.759 Y99.484
G1 F1800 X138.572 Y95.297 E127.60974
G0 F9000 X139.133 Y95.292
G1 F1800 X142.759 Y98.918 E127.86558
G0 F9000 X142.759 Y98.352
G1 F1800 X139.693 Y95.287 E128.08187
G0 F9000 X140.254 Y95.282
G1 F1800 X142.759 Y97.787 E128.25861
G0 F9000 X142.759 Y97.221
G1 F1800 X140.815 Y95.277 E128.39577
G0 F9000 X141.376 Y95.272
G1 F1800 X142.759 Y96.655 E128.49334
G0 F9000 X142.759 Y96.090
G1 F1800 X141.936 Y95.267 E128.55141
G0 F9000 X142.497 Y95.262
G1 F1800 X142.759 Y95.524 E128.56990
G1 F2400 E124.56990
G0 F9000 X58.882 Y95.000
;TYPE:SUPPORT
G1 F2400 E128.56990
G1 F1800 X58.882 Y98.400 E128.73952
G1 X55.710 Y98.400 E128.89778
G1 X54.900 Y97.590 E128.95493
G1 X54.900 Y95.811 E129.04368
G1 X55.711 Y95.000 E129.10090
G1 X58.882 Y95.000 E129.25910
G0 F9000 X55.986 Y95.100
G0 X55.986 Y94.940
G1 F1800 X55.986 Y98.460 E129.43472
G1 F2400 E125.43472
G0 F9000 X55.710 Y101.400
G1 F2400 E129.43472
G1 F1800 X58.883 Y101.400 E129.59302
G1 X58.883 Y104.800 E129.76264
G1 X55.710 Y104.800 E129.92095
G1 X54.900 Y103.990 E129.97810
G1 X54.900 Y102.210 E130.06690
G1 X55.710 Y101.400 E130.12405
G0 F9000 X55.986 Y101.340
G1 F1800 X55.986 Y104.860 E130.29966
G0 F9000 X54.839 Y103.974
G1 F1800 X58.942 Y103.974 E130.50436
;LAYER:1
M106 S63
G0 F9000 X59.915 Y103.974 Z0.500
G0 X61.215 Y104.339
;TYPE:WALL-INNER
G1 F2520 X61.214 Y104.153 E130.51055
G1 X61.215 Y104.127 E130.51141
G1 X61.214 Y95.645 E130.79353
G1 X76.600 Y95.508 E131.30529
G1 X76.600 Y104.491 E131.60406
G1 X61.214 Y104.355 E132.11582
G1 X61.215 Y104.339 E132.11636
G0 F9000 X60.815 Y104.334
G1 F2520 X60.814 Y104.145 E132.12264
G1 X60.815 Y104.121 E132.12344
G1 X60.814 Y95.429 E132.41254
G1 X60.815 Y95.248 E132.41856
G1 X77.000 Y95.105 E132.95690
G1 X77.000 Y104.895 E133.28251
G1 X60.814 Y104.752 E133.82088
G1 X60.815 Y104.578 E133.82667
G1 X60.814 Y104.360 E133.83392
G1 X60.815 Y104.334 E133.83479
G0 F9000 X60.415 Y104.328
G1 F2520 X60.414 Y104.163 E133.84027
G1 X60.415 Y104.115 E133.84187
G1 X60.414 Y95.424 E134.13093
G1 X60.415 Y95.322 E134.13433
G1 X60.414 Y94.852 E134.14996
G1 X77.400 Y94.701 E134.71494
G1 X77.400 Y105.298 E135.06740
G1 X60.415 Y105.148 E135.63234
G1 X60.414 Y104.995 E135.63743
G1 X60.415 Y104.933 E135.63949
G1 X60.414 Y104.900 E135.64059
G1 X60.415 Y104.874 E135.64146
G1 X60.414 Y104.728 E135.64631
G1 X60.415 Y104.632 E135.64951
