;Generated with Cura_SteamEngine 15.01
; Default start code
G28 ; Home extruder
G1 Z15 F100
M107 ; Turn off fan
G90 ; Absolute positioning
M82 ; Extruder in absolute mode
M190 S50
; Activate all used extruder
M104 T0 S210
G92 E0 ; Reset extruder position
; Wait for all used extruders to reach temperature
M109 T0 S210
;Layer count: 75
;LAYER:0
M107
G0 F9000 X122.699 Y90.425 Z0.300
;TYPE:SKIRT
G1 F1800 X132.375 Y90.524 E0.48276
G1 X147.670 Y90.676 E1.24587
G1 X147.668 Y91.300 E1.27700
G1 X149.915 Y91.300 E1.38911
G1 X152.600 Y93.985 E1.57855
G1 X152.600 Y105.815 E2.16875
G1 X149.915 Y108.500 E2.35819
G1 X147.668 Y108.500 E2.47029
G1 X147.670 Y109.323 E2.51135
G1 X122.700 Y109.572 E3.75717
G1 X122.699 Y90.425 E4.71242
G0 F9000 X121.929 Y90.419
G1 F1800 X121.929 Y109.580 E5.66837
G1 X87.830 Y109.921 E7.36966
G1 X87.829 Y90.078 E8.35963
G1 X121.929 Y90.419 E10.06097
G0 F9000 X86.300 Y90.062
G1 F1800 X86.300 Y109.936 E11.05249
G1 X47.200 Y110.327 E13.00329
G1 X47.199 Y89.672 E14.03377
G1 X86.300 Y90.062 E15.98463
G1 F2400 E11.98463
G0 F9000 X81.300 Y95.012
;TYPE:WALL-INNER
G1 F2400 E15.98463
G1 F1800 X81.300 Y104.986 E16.48223
G1 X52.200 Y105.277 E17.93411
G1 X52.199 Y94.722 E18.46070
G1 X81.300 Y95.012 E19.91263
G0 F9000 X81.700 Y94.616
G1 F1800 X81.700 Y105.382 E20.44975
G1 X51.800 Y105.681 E21.94154
G1 X51.799 Y94.318 E22.50844
G1 X81.700 Y94.616 E24.00028
G0 F9000 X82.100 Y94.220
G1 F1800 X82.100 Y105.778 E24.57691
G1 X51.400 Y106.085 E26.10862
G1 X51.399 Y93.914 E26.71583
G1 X82.100 Y94.220 E28.24759
G0 F9000 X82.500 Y93.824
G1 F1800 X82.500 Y106.174 E28.86373
G1 X51.000 Y106.489 E30.43535
G1 X50.999 Y93.510 E31.08288
G1 X82.500 Y93.824 E32.65455
G0 F9000 X82.900 Y93.428
;TYPE:WALL-OUTER
G1 F1800 X82.900 Y106.570 E33.31020
G1 X50.600 Y106.893 E34.92174
G1 X50.599 Y93.106 E35.60957
G1 X82.900 Y93.428 E37.22116
G0 F9000 X82.690 Y93.724
G0 X81.159 Y95.584
;TYPE:SKIN
G1 F1800 X80.721 Y95.146 E37.25206
G0 F9000 X80.149 Y95.140
G1 F1800 X81.159 Y96.150 E37.32332
G0 F9000 X81.159 Y96.715
G1 F1800 X79.578 Y95.134 E37.43487
G0 F9000 X79.007 Y95.129
G1 F1800 X81.159 Y97.281 E37.58670
G0 F9000 X81.159 Y97.847
G1 F1800 X78.435 Y95.123 E37.77890
G0 F9000 X77.864 Y95.117
G1 F1800 X81.159 Y98.413 E38.01141
G0 F9000 X81.159 Y98.978
G1 F1800 X77.293 Y95.112 E38.28418
G0 F9000 X76.721 Y95.106
G1 F1800 X81.159 Y99.544 E38.59730
G0 F9000 X81.159 Y100.110
G1 F1800 X76.150 Y95.100 E38.95075
G0 F9000 X75.579 Y95.095
G1 F1800 X81.159 Y100.675 E39.34445
G0 F9000 X81.159 Y101.241
G1 F1800 X75.007 Y95.089 E39.77851
G0 F9000 X74.436 Y95.083
G1 F1800 X81.159 Y101.807 E40.25289
G0 F9000 X81.159 Y102.372
G1 F1800 X73.864 Y95.077 E40.76759
G0 F9000 X73.293 Y95.071
G1 F1800 X81.159 Y102.938 E41.32261
G0 F9000 X81.159 Y103.504
G1 F1800 X72.721 Y95.066 E41.91796
G0 F9000 X72.150 Y95.060
G1 F1800 X81.159 Y104.069 E42.55359
G0 F9000 X81.159 Y104.635
G1 F1800 X71.579 Y95.054 E43.22955
G0 F9000 X71.007 Y95.049
G1 F1800 X80.807 Y104.849 E43.92099
G0 F9000 X80.247 Y104.854
G1 F1800 X70.436 Y95.043 E44.61321
G0 F9000 X69.864 Y95.037
G1 F1800 X79.687 Y104.860 E45.30628
G0 F9000 X79.127 Y104.866
G1 F1800 X69.293 Y95.032 E46.00012
G0 F9000 X68.722 Y95.026
G1 F1800 X78.567 Y104.871 E46.69474
G0 F9000 X78.007 Y104.877
G1 F1800 X68.150 Y95.021 E47.39017
G0 F9000 X67.579 Y95.015
G1 F1800 X77.447 Y104.883 E48.08641
G0 F9000 X76.887 Y104.888
G1 F1800 X67.008 Y95.009 E48.78342
G0 F9000 X66.436 Y95.004
G1 F1800 X76.327 Y104.894 E49.48125
G0 F9000 X75.767 Y104.899
G1 F1800 X65.865 Y94.998 E50.17986
G0 F9000 X65.293 Y94.992
G1 F1800 X75.207 Y104.905 E50.87931
G0 F9000 X74.647 Y104.911
G1 F1800 X64.722 Y94.986 E51.57957
G0 F9000 X64.150 Y94.980
G1 F1800 X74.087 Y104.916 E52.28064
G0 F9000 X73.527 Y104.922
G1 F1800 X63.579 Y94.975 E52.98249
G0 F9000 X63.008 Y94.969
G1 F1800 X72.967 Y104.928 E53.68515
G0 F9000 X72.407 Y104.933
G1 F1800 X62.436 Y94.963 E54.38863
G0 F9000 X61.865 Y94.958
G1 F1800 X71.846 Y104.939 E55.09284
G0 F9000 X71.286 Y104.945
G1 F1800 X61.294 Y94.952 E55.79786
G0 F9000 X60.722 Y94.946
G1 F1800 X70.726 Y104.950 E56.50370
G0 F9000 X70.166 Y104.956
G1 F1800 X60.151 Y94.941 E57.21031
G0 F9000 X59.580 Y94.935
G1 F1800 X69.606 Y104.961 E57.91770
G0 F9000 X69.046 Y104.967
G1 F1800 X59.008 Y94.929 E58.62594
G0 F9000 X58.437 Y94.924
G1 F1800 X68.486 Y104.972 E59.33491
G0 F9000 X67.926 Y104.978
G1 F1800 X57.866 Y94.918 E60.04470
G0 F9000 X57.294 Y94.912
G1 F1800 X67.366 Y104.984 E60.75533
G0 F9000 X66.806 Y104.989
G1 F1800 X56.722 Y94.906 E61.46678
G0 F9000 X56.151 Y94.900
G1 F1800 X66.246 Y104.995 E62.17904
G0 F9000 X65.685 Y105.001
G1 F1800 X55.580 Y94.895 E62.89203
G0 F9000 X55.008 Y94.889
G1 F1800 X65.125 Y105.006 E63.60584
G0 F9000 X64.565 Y105.012
G1 F1800 X54.437 Y94.883 E64.32046
G0 F9000 X53.865 Y94.878
G1 F1800 X64.005 Y105.018 E65.03589
G0 F9000 X63.445 Y105.023
G1 F1800 X53.294 Y94.872 E65.75210
G0 F9000 X52.723 Y94.866
G1 F1800 X62.885 Y105.029 E66.46912
G0 F9000 X62.325 Y105.035
G1 F1800 X52.338 Y95.047 E67.17379
G0 F9000 X52.338 Y95.613
G1 F1800 X61.765 Y105.040 E67.83892
G0 F9000 X61.205 Y105.046
G1 F1800 X52.338 Y96.179 E68.46453
G0 F9000 X52.338 Y96.744
G1 F1800 X60.645 Y105.052 E69.05067
G0 F9000 X60.085 Y105.057
G1 F1800 X52.338 Y97.310 E69.59727
G0 F9000 X52.338 Y97.876
G1 F1800 X59.525 Y105.063 E70.10435
G0 F9000 X58.964 Y105.068
G1 F1800 X52.338 Y98.441 E70.57188
G0 F9000 X52.338 Y99.007
G1 F1800 X58.404 Y105.073 E70.99987
G0 F9000 X57.844 Y105.079
G1 F1800 X52.338 Y99.573 E71.38835
G0 F9000 X52.339 Y100.139
G1 F1800 X57.284 Y105.085 E71.73728
G0 F9000 X56.724 Y105.090
G1 F1800 X52.339 Y100.705 E72.04667
G0 F9000 X52.339 Y101.271
G1 F1800 X56.164 Y105.096 E72.31654
G0 F9000 X55.604 Y105.102
G1 F1800 X52.339 Y101.836 E72.54694
G0 F9000 X52.339 Y102.402
G1 F1800 X55.044 Y105.107 E72.73779
G0 F9000 X54.484 Y105.113
G1 F1800 X52.339 Y102.968 E72.88913
G0 F9000 X52.339 Y103.533
G1 F1800 X53.924 Y105.119 E73.00100
G0 F9000 X53.364 Y105.124
G1 F1800 X52.339 Y104.099 E73.07332
G0 F9000 X52.339 Y104.665
G1 F1800 X52.804 Y105.130 E73.10613
G1 F2400 E69.10613
G0 F9000 X92.830 Y104.871
;TYPE:WALL-INNER
G1 F2400 E73.10613
G1 F1800 X92.829 Y95.128 E73.59221
G1 X116.929 Y95.369 E74.79462
G1 X116.929 Y104.630 E75.25665
G1 X92.830 Y104.871 E76.45902
G0 F9000 X92.430 Y105.275
G1 F1800 X92.429 Y94.724 E76.98541
G1 X117.329 Y94.973 E78.22774
G1 X117.329 Y105.026 E78.72928
G1 X92.430 Y105.275 E79.97156
G0 F9000 X92.030 Y105.679
G1 F1800 X92.029 Y94.320 E80.53827
G1 X117.729 Y94.577 E81.82051
G1 X117.729 Y105.422 E82.36157
G1 X92.030 Y105.679 E83.64376
G0 F9000 X91.630 Y106.083
G1 F1800 X91.629 Y93.916 E84.25077
G1 X118.129 Y94.181 E85.57293
G1 X118.129 Y105.818 E86.15350
G1 X91.630 Y106.083 E87.47561
G0 F9000 X91.230 Y106.487
;TYPE:WALL-OUTER
G1 F1800 X91.229 Y93.512 E88.12293
G1 X118.529 Y93.785 E89.48501
G1 X118.529 Y106.214 E90.10509
G1 X91.230 Y106.487 E91.46711
G0 F9000 X91.530 Y106.275
G0 X93.130 Y104.727
;TYPE:SKIN
G1 F1800 X92.969 Y104.566 E91.47847
G0 F9000 X92.969 Y104.000
G1 F1800 X93.690 Y104.721 E91.52934
G0 F9000 X94.250 Y104.716
G1 F1800 X92.969 Y103.434 E91.61976
G0 F9000 X92.969 Y102.869
G1 F1800 X94.810 Y104.710 E91.74965
G0 F9000 X95.371 Y104.705
G1 F1800 X92.969 Y102.303 E91.91912
G0 F9000 X92.969 Y101.737
G1 F1800 X95.931 Y104.699 E92.12811
G0 F9000 X96.491 Y104.694
G1 F1800 X92.969 Y101.172 E92.37661
G0 F9000 X92.969 Y100.606
G1 F1800 X97.051 Y104.688 E92.66461
G0 F9000 X97.611 Y104.682
G1 F1800 X92.969 Y100.040 E92.99213
G0 F9000 X92.968 Y99.474
G1 F1800 X98.171 Y104.677 E93.35923
G0 F9000 X98.731 Y104.671
G1 F1800 X92.968 Y98.908 E93.76584
G0 F9000 X92.968 Y98.342
G1 F1800 X99.291 Y104.665 E94.21196
G0 F9000 X99.851 Y104.660
G1 F1800 X92.968 Y97.777 E94.69760
G0 F9000 X92.968 Y97.211
G1 F1800 X100.411 Y104.654 E95.22274
G0 F9000 X100.972 Y104.648
G1 F1800 X92.968 Y96.645 E95.78743
G0 F9000 X92.968 Y96.080
G1 F1800 X101.532 Y104.643 E96.39163
G0 F9000 X102.092 Y104.637
G1 F1800 X92.968 Y95.514 E97.03534
G0 F9000 X93.292 Y95.272
G1 F1800 X102.652 Y104.632 E97.69574
G0 F9000 X103.212 Y104.627
G1 F1800 X93.863 Y95.277 E98.35540
G0 F9000 X94.434 Y95.283
G1 F1800 X103.772 Y104.621 E99.01425
G0 F9000 X104.332 Y104.615
G1 F1800 X95.006 Y95.289 E99.67225
G0 F9000 X95.578 Y95.295
G1 F1800 X104.892 Y104.610 E100.32943
G0 F9000 X105.452 Y104.604
G1 F1800 X96.149 Y95.301 E100.98581
G0 F9000 X96.720 Y95.306
G1 F1800 X106.012 Y104.598 E101.64141
G0 F9000 X106.573 Y104.593
G1 F1800 X97.292 Y95.312 E102.29624
G0 F9000 X97.863 Y95.317
G1 F1800 X107.133 Y104.587 E102.95029
G0 F9000 X107.693 Y104.581
G1 F1800 X98.434 Y95.323 E103.60352
G0 F9000 X99.006 Y95.329
G1 F1800 X108.253 Y104.576 E104.25595
G0 F9000 X108.813 Y104.570
G1 F1800 X99.578 Y95.335 E104.90753
G0 F9000 X100.149 Y95.341
G1 F1800 X109.373 Y104.564 E105.55830
G0 F9000 X109.933 Y104.559
G1 F1800 X100.720 Y95.346 E106.20832
G0 F9000 X101.292 Y95.352
G1 F1800 X110.493 Y104.554 E106.85754
G0 F9000 X111.053 Y104.548
G1 F1800 X101.863 Y95.358 E107.50594
G0 F9000 X102.435 Y95.363
G1 F1800 X111.613 Y104.542 E108.15353
G0 F9000 X112.174 Y104.537
G1 F1800 X103.006 Y95.369 E108.80039
G0 F9000 X103.577 Y95.375
G1 F1800 X112.734 Y104.531 E109.44643
G0 F9000 X113.294 Y104.525
G1 F1800 X104.149 Y95.381 E110.09162
G0 F9000 X104.721 Y95.387
G1 F1800 X113.854 Y104.520 E110.73600
G0 F9000 X114.414 Y104.514
G1 F1800 X105.292 Y95.392 E111.37961
G0 F9000 X105.863 Y95.398
G1 F1800 X114.974 Y104.508 E112.02240
G0 F9000 X115.534 Y104.503
G1 F1800 X106.435 Y95.404 E112.66439
G0 F9000 X107.006 Y95.409
G1 F1800 X116.094 Y104.497 E113.30560
G0 F9000 X116.654 Y104.491
G1 F1800 X107.577 Y95.415 E113.94599
G0 F9000 X108.149 Y95.421
G1 F1800 X116.787 Y104.059 E114.55545
G0 F9000 X116.787 Y103.494
G1 F1800 X108.721 Y95.427 E115.12458
G0 F9000 X109.292 Y95.433
G1 F1800 X116.787 Y102.928 E115.65340
G0 F9000 X116.787 Y102.362
G1 F1800 X109.863 Y95.438 E116.14192
G0 F9000 X110.435 Y95.444
G1 F1800 X116.787 Y101.797 E116.59013
G0 F9000 X116.787 Y101.231
G1 F1800 X111.006 Y95.450 E116.99801
G0 F9000 X111.577 Y95.455
G1 F1800 X116.787 Y100.665 E117.36560
G0 F9000 X116.787 Y100.100
G1 F1800 X112.149 Y95.461 E117.69287
G0 F9000 X112.721 Y95.467
G1 F1800 X116.787 Y99.534 E117.97979
G0 F9000 X116.787 Y98.968
G1 F1800 X113.292 Y95.473 E118.22638
G0 F9000 X113.863 Y95.479
G1 F1800 X116.787 Y98.403 E118.43268
G0 F9000 X116.787 Y97.837
G1 F1800 X114.435 Y95.484 E118.59866
G0 F9000 X115.006 Y95.490
G1 F1800 X116.787 Y97.271 E118.72432
G0 F9000 X116.787 Y96.706
G1 F1800 X115.578 Y95.496 E118.80966
G0 F9000 X116.149 Y95.501
G1 F1800 X116.787 Y96.140 E118.85471
G0 F9000 X116.787 Y95.574
G1 F1800 X116.721 Y95.508 E118.85936
G1 F2400 E114.85936
G0 F9000 X127.699 Y95.476
;TYPE:WALL-INNER
G1 F2400 E118.85936
G1 F1800 X142.661 Y95.626 E119.60586
G1 X142.662 Y104.373 E120.04225
G1 X127.700 Y104.522 E120.78874
G1 X127.699 Y95.476 E121.24005
G0 F9000 X127.299 Y95.072
G1 F1800 X143.061 Y95.230 E122.02646
G1 X143.062 Y104.769 E122.50236
G1 X127.300 Y104.926 E123.28877
G1 X127.299 Y95.072 E123.78039
G0 F9000 X126.899 Y94.668
G1 F1800 X143.461 Y94.834 E124.60671
G1 X143.462 Y105.165 E125.12213
G1 X126.900 Y105.330 E125.94845
G1 X126.899 Y94.668 E126.48038
G0 F9000 X126.499 Y94.264
G1 F1800 X143.861 Y94.438 E127.34662
G1 X143.862 Y94.502 E127.34981
G1 X143.860 Y94.598 E127.35460
G1 X143.862 Y94.633 E127.35635
G1 X143.861 Y94.670 E127.35819
G1 X143.862 Y105.311 E127.88908
G1 X143.860 Y105.381 E127.89257
G1 X143.862 Y105.442 E127.89562
G1 X143.861 Y105.561 E127.90155
G1 X126.500 Y105.734 E128.76774
G1 X126.499 Y94.264 E129.33998
G0 F9000 X126.099 Y93.860
;TYPE:WALL-OUTER
G1 F1800 X144.262 Y94.042 E130.24618
G1 X144.261 Y94.252 E130.25666
G1 X144.262 Y94.262 E130.25716
G1 X144.261 Y94.362 E130.26215
G1 X144.262 Y94.385 E130.26330
G1 X144.261 Y94.479 E130.26799
G1 X144.262 Y94.503 E130.26919
G1 X144.261 Y94.543 E130.27118
G1 X144.262 Y94.567 E130.27238
G1 X144.261 Y94.588 E130.27343
G1 X144.262 Y94.628 E130.27543
G1 X144.261 Y94.675 E130.27777
G1 X144.262 Y105.312 E130.80845
G1 X144.261 Y105.338 E130.80975
G1 X144.262 Y105.379 E130.81180
G1 X144.261 Y105.389 E130.81230
G1 X144.262 Y105.418 E130.81375
G1 X144.261 Y105.569 E130.82128
G1 X144.262 Y105.593 E130.82248
G1 X144.261 Y105.667 E130.82617
G1 X144.262 Y105.690 E130.82732
G1 X144.261 Y105.710 E130.82832
G1 X144.261 Y105.957 E130.84064
G1 X126.100 Y106.138 E131.74674
G1 X126.099 Y93.860 E132.35929
G0 F9000 X126.308 Y94.162
G0 X127.838 Y95.877
;TYPE:SKIN
G1 F1800 X136.257 Y104.296 E132.95330
G0 F9000 X135.697 Y104.301
G1 F1800 X127.838 Y96.443 E133.50776
G0 F9000 X127.838 Y97.008
G1 F1800 X135.137 Y104.307 E134.02274
G0 F9000 X134.577 Y104.313
G1 F1800 X127.838 Y97.574 E134.49822
G0 F9000 X127.838 Y98.140
G1 F1800 X134.017 Y104.318 E134.93414
G0 F9000 X133.457 Y104.324
G1 F1800 X127.838 Y98.705 E135.33059
G0 F9000 X127.838 Y99.271
G1 F1800 X132.897 Y104.330 E135.68753
G0 F9000 X132.337 Y104.335
G1 F1800 X127.838 Y99.837 E136.00493
G0 F9000 X128.147 Y95.620
G1 F1800 X136.817 Y104.290 E136.61664
G0 F9000 X137.377 Y104.284
G1 F1800 X128.718 Y95.626 E137.22755
G0 F9000 X129.290 Y95.631
G1 F1800 X137.937 Y104.279 E137.83767
G0 F9000 X138.497 Y104.273
G1 F1800 X129.861 Y95.637 E138.44699
G0 F9000 X130.432 Y95.643
G1 F1800 X139.058 Y104.268 E139.05557
G0 F9000 X139.618 Y104.262
G1 F1800 X131.004 Y95.649 E139.66329
G0 F9000 X131.576 Y95.655
G1 F1800 X140.178 Y104.257 E140.27021
G0 F9000 X140.738 Y104.251
G1 F1800 X132.147 Y95.660 E140.87635
G0 F9000 X132.718 Y95.666
G1 F1800 X141.298 Y104.245 E141.48168
G0 F9000 X141.858 Y104.240
G1 F1800 X133.290 Y95.672 E142.08620
G0 F9000 X133.861 Y95.677
G1 F1800 X142.418 Y104.234 E142.68994
G0 F9000 X142.520 Y103.771
G1 F1800 X134.433 Y95.683 E143.26056
G0 F9000 X135.005 Y95.689
G1 F1800 X142.520 Y103.205 E143.79082
G0 F9000 X142.520 Y102.640
G1 F1800 X135.576 Y95.695 E144.28079
G0 F9000 X136.147 Y95.701
G1 F1800 X142.520 Y102.074 E144.73044
G0 F9000 X142.520 Y101.508
G1 F1800 X136.719 Y95.706 E145.13977
G0 F9000 X137.290 Y95.712
G1 F1800 X142.520 Y100.943 E145.50881
G0 F9000 X142.520 Y100.377
G1 F1800 X137.861 Y95.718 E145.83753
G0 F9000 X138.433 Y95.723
G1 F1800 X142.520 Y99.811 E146.12592
G0 F9000 X142.520 Y99.245
G1 F1800 X139.004 Y95.729 E146.37400
G0 F9000 X139.576 Y95.735
G1 F1800 X142.520 Y98.680 E146.58175
G0 F9000 X142.520 Y98.114
G1 F1800 X140.147 Y95.741 E146.74917
G0 F9000 X140.719 Y95.747
G1 F1800 X142.520 Y97.548 E146.87624
G0 F9000 X142.520 Y96.983
G1 F1800 X141.290 Y95.752 E146.96306
G0 F9000 X141.861 Y95.758
G1 F1800 X142.520 Y96.417 E147.00956
G0 F9000 X142.520 Y95.851
G1 F1800 X142.433 Y95.764 E147.01570
G0 F9000 X131.777 Y104.341
G1 F1800 X127.839 Y100.403 E147.29354
G0 F9000 X127.839 Y100.969
G1 F1800 X131.217 Y104.347 E147.53188
G0 F9000 X130.657 Y104.352
G1 F1800 X127.839 Y101.534 E147.73070
G0 F9000 X127.839 Y102.100
G1 F1800 X130.097 Y104.358 E147.89002
G0 F9000 X129.536 Y104.363
G1 F1800 X127.839 Y102.666 E148.00975
G0 F9000 X127.839 Y103.231
G1 F1800 X128.976 Y104.368 E148.08997
G0 F9000 X128.416 Y104.374
G1 F1800 X127.839 Y103.797 E148.13068
G1 F2400 E144.13068
G0 F9000 X145.161 Y97.900
;TYPE:SUPPORT
G1 F2400 E148.13068
G1 F1800 X145.161 Y94.500 E148.30031
G1 X148.590 Y94.500 E148.47138
G1 X149.400 Y95.310 E148.52853
G1 X149.400 Y97.900 E148.65775
G1 X145.161 Y97.900 E148.86923
G0 F9000 X146.630 Y97.960
G1 F1800 X146.630 Y94.440 E149.04485
G1 F2400 E145.04485
G0 F9000 X145.162 Y101.900
G1 F2400 E149.04485
G1 F1800 X149.400 Y101.900 E149.25628
G1 X149.400 Y104.490 E149.38550
G1 X148.590 Y105.300 E149.44265
G1 X145.162 Y105.300 E149.61367
G1 X145.162 Y101.900 E149.78330
G0 F9000 X146.630 Y101.840
G1 F1800 X146.630 Y105.360 E149.95891
G0 F9000 X146.630 Y105.200
G0 X145.262 Y103.974
G0 X145.101 Y103.974
G1 F1800 X149.459 Y103.974 E150.17633
;LAYER:1
M106 S63
G1 F2400 E146.17633
G0 F9000 X81.500 Y105.184 Z0.500
;TYPE:WALL-INNER
G1 F2400 E150.17633
G1 F2520 X52.000 Y105.479 E151.15756
G1 X51.999 Y94.520 E151.52205
G1 X81.500 Y94.814 E152.50331
G1 X81.500 Y105.184 E152.84822
G0 F9000 X81.900 Y105.580
